%
(A_3)
(Machine)
(  vendor: Autodesk)
(  model: Generic 3-axis Router)
(  description: MakerspaceLeiden CNC machine)
(T1 D=6 CR=0 - ZMIN=-18.5 - flat end mill)
N10 G90 G94
N15 G17
N20 G21
(When using Fusion 360 for Personal Use, the feedrate of)
(rapid moves is reduced to match the feedrate of cutting)
(moves, which can increase machining time. Unrestricted rapid)
(moves are available with a Fusion 360 Subscription.)
N25 G28

(A_3)
N30 T1 M6
N35 S15000 M3
N40 G54
N45 M7
N50 G0 X572.455 Y-87
N55 G43 Z15
N60 G1 Z5 F2500
N65 Z2.5 F333.3
N70 X750 Z-3.7
N75 X1175 F2500
N80 G2 X1203 Y-115 J-28
N85 G1 Y-125
N90 G2 X1175 Y-153 I-28
N95 G1 X325
N100 G2 X297 Y-125 J28
N105 G1 Y-115
N110 G2 X325 Y-87 I28
N115 G1 X750
N120 X1030.598 Z-7.4 F333.3
N125 X1175 F2500
N130 G2 X1203 Y-115 J-28
N135 G1 Y-125
N140 G2 X1175 Y-153 I-28
N145 G1 X325
N150 G2 X297 Y-125 J28
N155 G1 Y-115
N160 G2 X325 Y-87 I28
N165 G1 X1030.598
N170 X1175 Z-9.304 F333.3
N175 G2 X1203 Y-115 Z-9.884 J-28
N180 G1 Y-125 Z-10.016
N185 G2 X1175 Y-153 Z-10.596 I-28
N190 G1 X1136.77 Z-11.1
N195 X325 F2500
N200 G2 X297 Y-125 J28
N205 G1 Y-115
N210 G2 X325 Y-87 I28
N215 G1 X1175
N220 G2 X1203 Y-115 J-28
N225 G1 Y-125
N230 G2 X1175 Y-153 I-28
N235 G1 X1136.77
N240 X856.172 Z-14.8 F333.3
N245 X325 F2500
N250 G2 X297 Y-125 J28
N255 G1 Y-115
N260 G2 X325 Y-87 I28
N265 G1 X1175
N270 G2 X1203 Y-115 J-28
N275 G1 Y-125
N280 G2 X1175 Y-153 I-28
N285 G1 X856.172
N290 X654.5 Z-17.459 F333.3
N295 Z-17
N300 X645.5
N305 Z-17.578
N310 X604.5 Z-18.119
N315 Z-17
N320 X595.5
N325 Z-18.237
N330 X575.575 Z-18.5
N335 X554.5 F2500
N340 Z-17
N345 X545.5
N350 Z-18.5 F333.3
N355 X504.5 F2500
N360 Z-17
N365 X495.5
N370 Z-18.5 F333.3
N375 X454.5 F2500
N380 Z-17
N385 X445.5
N390 Z-18.5 F333.3
N395 X404.5 F2500
N400 Z-17
N405 X395.5
N410 Z-18.5 F333.3
N415 X354.5 F2500
N420 Z-17
N425 X345.5
N430 Z-18.5 F333.3
N435 X325 F2500
N440 G2 X297 Y-125 J28
N445 G1 Y-115
N450 G2 X325 Y-87 I28
N455 G1 X345.5
N460 Z-17
N465 X354.5
N470 Z-18.5 F333.3
N475 X395.5 F2500
N480 Z-17
N485 X404.5
N490 Z-18.5 F333.3
N495 X445.5 F2500
N500 Z-17
N505 X454.5
N510 Z-18.5 F333.3
N515 X495.5 F2500
N520 Z-17
N525 X504.5
N530 Z-18.5 F333.3
N535 X545.5 F2500
N540 Z-17
N545 X554.5
N550 Z-18.5 F333.3
N555 X595.5 F2500
N560 Z-17
N565 X604.5
N570 Z-18.5 F333.3
N575 X645.5 F2500
N580 Z-17
N585 X654.5
N590 Z-18.5 F333.3
N595 X695.5 F2500
N600 Z-17
N605 X704.5
N610 Z-18.5 F333.3
N615 X745.5 F2500
N620 Z-17
N625 X754.5
N630 Z-18.5 F333.3
N635 X795.5 F2500
N640 Z-17
N645 X804.5
N650 Z-18.5 F333.3
N655 X845.5 F2500
N660 Z-17
N665 X854.5
N670 Z-18.5 F333.3
N675 X895.5 F2500
N680 Z-17
N685 X904.5
N690 Z-18.5 F333.3
N695 X945.5 F2500
N700 Z-17
N705 X954.5
N710 Z-18.5 F333.3
N715 X995.5 F2500
N720 Z-17
N725 X1004.5
N730 Z-18.5 F333.3
N735 X1045.5 F2500
N740 Z-17
N745 X1054.5
N750 Z-18.5 F333.3
N755 X1095.5 F2500
N760 Z-17
N765 X1104.5
N770 Z-18.5 F333.3
N775 X1145.5 F2500
N780 Z-17
N785 X1154.5
N790 Z-18.5 F333.3
N795 X1175 F2500
N800 G2 X1203 Y-115 J-28
N805 G1 Y-125
N810 G2 X1175 Y-153 I-28
N815 G1 X1154.5
N820 Z-17
N825 X1145.5
N830 Z-18.5 F333.3
N835 X1104.5 F2500
N840 Z-17
N845 X1095.5
N850 Z-18.5 F333.3
N855 X1054.5 F2500
N860 Z-17
N865 X1045.5
N870 Z-18.5 F333.3
N875 X1004.5 F2500
N880 Z-17
N885 X995.5
N890 Z-18.5 F333.3
N895 X954.5 F2500
N900 Z-17
N905 X945.5
N910 Z-18.5 F333.3
N915 X904.5 F2500
N920 Z-17
N925 X895.5
N930 Z-18.5 F333.3
N935 X854.5 F2500
N940 Z-17
N945 X845.5
N950 Z-18.5 F333.3
N955 X804.5 F2500
N960 Z-17
N965 X795.5
N970 Z-18.5 F333.3
N975 X754.5 F2500
N980 Z-17
N985 X745.5
N990 Z-18.5 F333.3
N995 X704.5 F2500
N1000 Z-17
N1005 X695.5
N1010 Z-18.5 F333.3
N1015 X654.5 F2500
N1020 Z-17
N1025 X645.5
N1030 Z-18.5 F333.3
N1035 X604.5 F2500
N1040 Z-17
N1045 X595.5
N1050 Z-18.5 F333.3
N1055 X575.575 F2500
N1060 Z15
N1065 M9
N1070 G28
N1075 M30
%
