%
(B_1)
(Machine)
(  vendor: Autodesk)
(  model: Generic 3-axis Router)
(  description: MakerspaceLeiden CNC machine)
(T1 D=6 CR=0 - ZMIN=-18.5 - flat end mill)
N10 G90 G94
N15 G17
N20 G21
(When using Fusion 360 for Personal Use, the feedrate of)
(rapid moves is reduced to match the feedrate of cutting)
(moves, which can increase machining time. Unrestricted rapid)
(moves are available with a Fusion 360 Subscription.)
N25 G28

(B_1)
N30 T1 M6
N35 S15000 M3
N40 G54
N45 M7
N50 G0 X109.937 Y-283.684
N55 G43 Z15
N60 G1 Z5 F2500
N65 Z2.5 F333.3
N70 G3 X95 Y-197.266 Z-1.85 I-14.937 J41.918
N75 Y-286.266 J-44.5 F2500
N80 Y-197.266 J44.5
N85 X53.679 Y-225.248 Z-3.7 J-44.5 F333.3
N90 X136.321 Y-258.284 I41.321 J-16.518 F2500
N95 X53.679 Y-225.248 I-41.321 J16.518
N100 X64.324 Y-274.003 Z-5.55 I41.321 J-16.518 F333.3
N105 X125.676 Y-209.529 I30.676 J32.237 F2500
N110 X64.324 Y-274.003 I-30.676 J-32.237
N115 X113.547 Y-282.217 Z-7.4 I30.676 J32.237 F333.3
N120 X76.453 Y-201.315 I-18.547 J40.451 F2500
N125 X113.547 Y-282.217 I18.547 J-40.451
N130 X139.445 Y-239.56 Z-9.25 I-18.547 J40.451 F333.3
N135 X50.555 Y-243.972 I-44.445 J-2.206 F2500
N140 X139.445 Y-239.56 I44.445 J2.206
N145 X109.45 Y-199.677 Z-11.1 I-44.445 J-2.206 F333.3
N150 X80.55 Y-283.855 I-14.45 J-42.089 F2500
N155 X109.45 Y-199.677 I14.45 J42.089
N160 X61.282 Y-212.725 Z-12.95 I-14.45 J-42.089 F333.3
N165 X128.718 Y-270.807 I33.718 J-29.041 F2500
N170 X61.282 Y-212.725 I-33.718 J29.041
N175 X55.518 Y-262.295 Z-14.8 I33.718 J-29.041 F333.3
N180 X134.482 Y-221.237 I39.482 J20.529 F2500
N185 X55.518 Y-262.295 I-39.482 J-20.529
N190 X81.04 Y-284.02 Z-16 I39.482 J20.529 F333.3
N195 X89.536 Y-285.929 I13.96 J42.254
N200 G1 Z-16.305
N205 G3 X99.407 Y-286.047 Z-16.65 I5.464 J44.163
N210 X119.085 Y-279.185 I-4.407 J44.281 F2500
N215 G1 Z-16
N220 G3 X126.121 Y-273.573 I-24.085 J37.419
N225 G1 Z-16.65 F333.3
N230 G3 X139.272 Y-246.266 I-31.121 J31.807 F2500
N235 G1 Z-16
N240 G3 Y-237.266 I-44.272 J4.5
N245 G1 Z-16.65 F333.3
N250 G3 X126.121 Y-209.959 I-44.272 J-4.5 F2500
N255 G1 Z-16
N260 G3 X119.085 Y-204.347 I-31.121 J-31.807
N265 G1 Z-16.65 F333.3
N270 G3 X89.536 Y-197.603 I-24.085 J-37.419 F2500
N275 G1 Z-16
N280 G3 X80.761 Y-199.605 I5.464 J-44.163
N285 G1 Z-16.65 F333.3
N290 G3 X57.065 Y-218.503 I14.239 J-42.161 F2500
N295 G1 Z-16
N300 G3 X53.16 Y-226.612 I37.935 J-23.263
N305 G1 Z-16.65 F333.3
N310 G3 Y-256.921 I41.84 J-15.154 F2500
N315 G1 Z-16
N320 G3 X57.065 Y-265.03 I41.84 J15.155
N325 G1 Z-16.65 F333.3
N330 G3 X80.761 Y-283.927 I37.935 J23.264 F2500
N335 G1 Z-16
N340 G3 X89.536 Y-285.929 I14.239 J42.161
N345 G1 Z-16.65 F333.3
N350 G3 X99.407 Y-286.047 I5.464 J44.163 F2500
N355 X119.085 Y-279.185 Z-17.385 I-4.407 J44.281 F333.3
N360 G1 Z-16
N365 G3 X126.121 Y-273.573 I-24.085 J37.419
N370 G1 Z-17.699
N375 G3 X137.753 Y-254.111 Z-18.5 I-31.121 J31.807
N380 X139.272 Y-246.266 I-42.753 J12.345 F2500
N385 G1 Z-16
N390 G3 Y-237.266 I-44.272 J4.5
N395 G1 Z-18.5 F333.3
N400 G3 X126.121 Y-209.959 I-44.272 J-4.5 F2500
N405 G1 Z-16
N410 G3 X119.085 Y-204.347 I-31.121 J-31.807
N415 G1 Z-18.5 F333.3
N420 G3 X89.536 Y-197.603 I-24.085 J-37.419 F2500
N425 G1 Z-16
N430 G3 X80.761 Y-199.605 I5.464 J-44.163
N435 G1 Z-18.5 F333.3
N440 G3 X57.065 Y-218.503 I14.239 J-42.161 F2500
N445 G1 Z-16
N450 G3 X53.16 Y-226.612 I37.935 J-23.263
N455 G1 Z-18.5 F333.3
N460 G3 Y-256.921 I41.84 J-15.154 F2500
N465 G1 Z-16
N470 G3 X57.065 Y-265.03 I41.84 J15.155
N475 G1 Z-18.5 F333.3
N480 G3 X80.761 Y-283.927 I37.935 J23.264 F2500
N485 G1 Z-16
N490 G3 X89.536 Y-285.929 I14.239 J42.161
N495 G1 Z-18.5 F333.3
N500 G3 X119.085 Y-279.185 I5.464 J44.163 F2500
N505 G1 Z-16
N510 G3 X126.121 Y-273.573 I-24.085 J37.419
N515 G1 Z-18.5 F333.3
N520 G3 X137.753 Y-254.111 I-31.121 J31.807 F2500
N525 G1 Z5
N530 X236.918 Y-356.829
N535 Z2.5 F333.3
N540 G3 X150.5 Y-371.766 Z-1.85 I-41.918 J-14.937
N545 X239.5 I44.5 F2500
N550 X150.5 I-44.5
N555 X178.482 Y-413.087 Z-3.7 I44.5 F333.3
N560 X211.518 Y-330.445 I16.518 J41.321 F2500
N565 X178.482 Y-413.087 I-16.518 J-41.321
N570 X227.237 Y-402.442 Z-5.55 I16.518 J41.321 F333.3
N575 X162.763 Y-341.09 I-32.237 J30.676 F2500
N580 X227.237 Y-402.442 I32.237 J-30.676
N585 X235.451 Y-353.219 Z-7.4 I-32.237 J30.676 F333.3
N590 X154.549 Y-390.313 I-40.451 J-18.547 F2500
N595 X235.451 Y-353.219 I40.451 J18.547
N600 X192.794 Y-327.321 Z-9.25 I-40.451 J-18.547 F333.3
N605 X197.206 Y-416.211 I2.206 J-44.445 F2500
N610 X192.794 Y-327.321 I-2.206 J44.445
N615 X152.911 Y-357.316 Z-11.1 I2.206 J-44.445 F333.3
N620 X237.089 Y-386.216 I42.089 J-14.45 F2500
N625 X152.911 Y-357.316 I-42.089 J14.45
N630 X165.959 Y-405.484 Z-12.95 I42.089 J-14.45 F333.3
N635 X224.041 Y-338.048 I29.041 J33.718 F2500
N640 X165.959 Y-405.484 I-29.041 J-33.718
N645 X215.529 Y-411.248 Z-14.8 I29.041 J33.718 F333.3
N650 X174.471 Y-332.284 I-20.529 J39.482 F2500
N655 X215.529 Y-411.248 I20.529 J-39.482
N660 X239.272 Y-376.266 Z-16.338 I-20.529 J39.482 F333.3
N665 G1 Z-16
N670 G3 X239.281 Y-367.359 I-44.272 J4.5
N675 G1 X239.272 Y-367.266 F2500
N680 Z-16.65 F333.3
N685 G3 X226.121 Y-339.959 I-44.272 J-4.5 F2500
N690 G1 Z-16
N695 G3 X219.085 Y-334.347 I-31.121 J-31.807
N700 G1 Z-16.65 F333.3
N705 G3 X189.535 Y-327.603 I-24.085 J-37.419 F2500
N710 G1 Z-16
N715 G3 X180.761 Y-329.606 I5.465 J-44.163
N720 G1 Z-16.65 F333.3
N725 G3 X157.065 Y-348.503 I14.239 J-42.16 F2500
N730 G1 Z-16
N735 G3 X153.16 Y-356.612 I37.935 J-23.263
N740 G1 Z-16.65 F333.3
N745 G3 Y-386.921 I41.84 J-15.154 F2500
N750 G1 Z-16
N755 G3 X157.065 Y-395.03 I41.84 J15.155
N760 G1 Z-16.65 F333.3
N765 G3 X180.761 Y-413.926 I37.935 J23.264 F2500
N770 G1 Z-16
N775 G3 X189.535 Y-415.929 I14.239 J42.16
N780 G1 Z-16.65 F333.3
N785 G3 X219.085 Y-409.185 I5.465 J44.163 F2500
N790 G1 Z-16
N795 G3 X226.121 Y-403.573 I-24.085 J37.419
N800 G1 Z-16.65 F333.3
N805 G3 X239.272 Y-376.266 I-31.121 J31.807 F2500
N810 G1 Z-16
N815 G3 X239.281 Y-367.359 I-44.272 J4.5
N820 G1 X239.272 Y-367.266 F333.3
N825 Z-16.653
N830 G3 X226.121 Y-339.959 Z-17.733 I-44.272 J-4.5
N835 G1 Z-16
N840 G3 X219.085 Y-334.347 I-31.121 J-31.807
N845 G1 Z-18.048
N850 G3 X207.345 Y-329.013 Z-18.5 I-24.085 J-37.419
N855 X189.535 Y-327.603 I-12.345 J-42.753 F2500
N860 G1 Z-16
N865 G3 X180.761 Y-329.606 I5.465 J-44.163
N870 G1 Z-18.5 F333.3
N875 G3 X157.065 Y-348.503 I14.239 J-42.16 F2500
N880 G1 Z-16
N885 G3 X153.16 Y-356.612 I37.935 J-23.263
N890 G1 Z-18.5 F333.3
N895 G3 Y-386.921 I41.84 J-15.154 F2500
N900 G1 Z-16
N905 G3 X157.065 Y-395.03 I41.84 J15.155
N910 G1 Z-18.5 F333.3
N915 G3 X180.761 Y-413.926 I37.935 J23.264 F2500
N920 G1 Z-16
N925 G3 X189.535 Y-415.929 I14.239 J42.16
N930 G1 Z-18.5 F333.3
N935 G3 X219.085 Y-409.185 I5.465 J44.163 F2500
N940 G1 Z-16
N945 G3 X226.121 Y-403.573 I-24.085 J37.419
N950 G1 Z-18.5 F333.3
N955 G3 X239.272 Y-376.266 I-31.121 J31.807 F2500
N960 G1 Z-16
N965 G3 Y-367.266 I-44.272 J4.5
N970 G1 Z-18.5 F333.3
N975 G3 X226.121 Y-339.959 I-44.272 J-4.5 F2500
N980 G1 Z-16
N985 G3 X219.085 Y-334.347 I-31.121 J-31.807
N990 G1 Z-18.5 F333.3
N995 G3 X207.345 Y-329.013 I-24.085 J-37.419 F2500
N1000 G1 Z5
N1005 X109.937 Y-543.684
N1010 Z2.5 F333.3
N1015 G3 X95 Y-457.266 Z-1.85 I-14.937 J41.918
N1020 Y-546.266 J-44.5 F2500
N1025 Y-457.266 J44.5
N1030 X53.679 Y-485.248 Z-3.7 J-44.5 F333.3
N1035 X136.321 Y-518.284 I41.321 J-16.518 F2500
N1040 X53.679 Y-485.248 I-41.321 J16.518
N1045 X64.324 Y-534.003 Z-5.55 I41.321 J-16.518 F333.3
N1050 X125.676 Y-469.529 I30.676 J32.237 F2500
N1055 X64.324 Y-534.003 I-30.676 J-32.237
N1060 X113.547 Y-542.217 Z-7.4 I30.676 J32.237 F333.3
N1065 X76.453 Y-461.315 I-18.547 J40.451 F2500
N1070 X113.547 Y-542.217 I18.547 J-40.451
N1075 X139.445 Y-499.56 Z-9.25 I-18.547 J40.451 F333.3
N1080 X50.555 Y-503.972 I-44.445 J-2.206 F2500
N1085 X139.445 Y-499.56 I44.445 J2.206
N1090 X109.45 Y-459.677 Z-11.1 I-44.445 J-2.206 F333.3
N1095 X80.55 Y-543.855 I-14.45 J-42.089 F2500
N1100 X109.45 Y-459.677 I14.45 J42.089
N1105 X61.282 Y-472.725 Z-12.95 I-14.45 J-42.089 F333.3
N1110 X128.718 Y-530.807 I33.718 J-29.041 F2500
N1115 X61.282 Y-472.725 I-33.718 J29.041
N1120 X55.518 Y-522.295 Z-14.8 I33.718 J-29.041 F333.3
N1125 X134.482 Y-481.237 I39.482 J20.529 F2500
N1130 X55.518 Y-522.295 I-39.482 J-20.529
N1135 X81.04 Y-544.02 Z-16 I39.482 J20.529 F333.3
N1140 X89.536 Y-545.929 I13.96 J42.254
N1145 G1 Z-16.305
N1150 G3 X99.407 Y-546.047 Z-16.65 I5.464 J44.163
N1155 X119.085 Y-539.185 I-4.407 J44.281 F2500
N1160 G1 Z-16
N1165 G3 X126.121 Y-533.573 I-24.085 J37.419
N1170 G1 Z-16.65 F333.3
N1175 G3 X139.272 Y-506.266 I-31.121 J31.807 F2500
N1180 G1 Z-16
N1185 G3 Y-497.266 I-44.272 J4.5
N1190 G1 Z-16.65 F333.3
N1195 G3 X126.121 Y-469.959 I-44.272 J-4.5 F2500
N1200 G1 Z-16
N1205 G3 X119.085 Y-464.347 I-31.121 J-31.807
N1210 G1 Z-16.65 F333.3
N1215 G3 X89.536 Y-457.603 I-24.085 J-37.419 F2500
N1220 G1 Z-16
N1225 G3 X80.761 Y-459.605 I5.464 J-44.163
N1230 G1 Z-16.65 F333.3
N1235 G3 X57.065 Y-478.503 I14.239 J-42.161 F2500
N1240 G1 Z-16
N1245 G3 X53.16 Y-486.612 I37.935 J-23.263
N1250 G1 Z-16.65 F333.3
N1255 G3 Y-516.921 I41.84 J-15.154 F2500
N1260 G1 Z-16
N1265 G3 X57.065 Y-525.03 I41.84 J15.155
N1270 G1 Z-16.65 F333.3
N1275 G3 X80.761 Y-543.927 I37.935 J23.264 F2500
N1280 G1 Z-16
N1285 G3 X89.536 Y-545.929 I14.239 J42.161
N1290 G1 Z-16.65 F333.3
N1295 G3 X99.407 Y-546.047 I5.464 J44.163 F2500
N1300 X119.085 Y-539.185 Z-17.385 I-4.407 J44.281 F333.3
N1305 G1 Z-16
N1310 G3 X126.121 Y-533.573 I-24.085 J37.419
N1315 G1 Z-17.699
N1320 G3 X137.753 Y-514.111 Z-18.5 I-31.121 J31.807
N1325 X139.272 Y-506.266 I-42.753 J12.345 F2500
N1330 G1 Z-16
N1335 G3 Y-497.266 I-44.272 J4.5
N1340 G1 Z-18.5 F333.3
N1345 G3 X126.121 Y-469.959 I-44.272 J-4.5 F2500
N1350 G1 Z-16
N1355 G3 X119.085 Y-464.347 I-31.121 J-31.807
N1360 G1 Z-18.5 F333.3
N1365 G3 X89.536 Y-457.603 I-24.085 J-37.419 F2500
N1370 G1 Z-16
N1375 G3 X80.761 Y-459.605 I5.464 J-44.163
N1380 G1 Z-18.5 F333.3
N1385 G3 X57.065 Y-478.503 I14.239 J-42.161 F2500
N1390 G1 Z-16
N1395 G3 X53.16 Y-486.612 I37.935 J-23.263
N1400 G1 Z-18.5 F333.3
N1405 G3 Y-516.921 I41.84 J-15.154 F2500
N1410 G1 Z-16
N1415 G3 X57.065 Y-525.03 I41.84 J15.155
N1420 G1 Z-18.5 F333.3
N1425 G3 X80.761 Y-543.927 I37.935 J23.264 F2500
N1430 G1 Z-16
N1435 G3 X89.536 Y-545.929 I14.239 J42.161
N1440 G1 Z-18.5 F333.3
N1445 G3 X119.085 Y-539.185 I5.464 J44.163 F2500
N1450 G1 Z-16
N1455 G3 X126.121 Y-533.573 I-24.085 J37.419
N1460 G1 Z-18.5 F333.3
N1465 G3 X137.753 Y-514.111 I-31.121 J31.807 F2500
N1470 G1 Z5
N1475 X209.937 Y-153.684
N1480 Z2.5 F333.3
N1485 G3 X195 Y-67.266 Z-1.85 I-14.937 J41.918
N1490 Y-156.266 J-44.5 F2500
N1495 Y-67.266 J44.5
N1500 X153.679 Y-95.248 Z-3.7 J-44.5 F333.3
N1505 X236.321 Y-128.284 I41.321 J-16.518 F2500
N1510 X153.679 Y-95.248 I-41.321 J16.518
N1515 X164.324 Y-144.003 Z-5.55 I41.321 J-16.518 F333.3
N1520 X225.676 Y-79.529 I30.676 J32.237 F2500
N1525 X164.324 Y-144.003 I-30.676 J-32.237
N1530 X213.547 Y-152.217 Z-7.4 I30.676 J32.237 F333.3
N1535 X176.453 Y-71.315 I-18.547 J40.451 F2500
N1540 X213.547 Y-152.217 I18.547 J-40.451
N1545 X239.445 Y-109.56 Z-9.25 I-18.547 J40.451 F333.3
N1550 X150.555 Y-113.972 I-44.445 J-2.206 F2500
N1555 X239.445 Y-109.56 I44.445 J2.206
N1560 X209.45 Y-69.677 Z-11.1 I-44.445 J-2.206 F333.3
N1565 X180.55 Y-153.855 I-14.45 J-42.089 F2500
N1570 X209.45 Y-69.677 I14.45 J42.089
N1575 X161.282 Y-82.725 Z-12.95 I-14.45 J-42.089 F333.3
N1580 X228.718 Y-140.807 I33.718 J-29.041 F2500
N1585 X161.282 Y-82.725 I-33.718 J29.041
N1590 X155.518 Y-132.295 Z-14.8 I33.718 J-29.041 F333.3
N1595 X234.482 Y-91.237 I39.482 J20.529 F2500
N1600 X155.518 Y-132.295 I-39.482 J-20.529
N1605 X181.04 Y-154.02 Z-16 I39.482 J20.529 F333.3
N1610 X189.535 Y-155.929 I13.96 J42.254
N1615 G1 Z-16.305
N1620 G3 X199.407 Y-156.047 Z-16.65 I5.465 J44.163
N1625 X219.085 Y-149.185 I-4.407 J44.281 F2500
N1630 G1 Z-16
N1635 G3 X226.121 Y-143.573 I-24.085 J37.419
N1640 G1 Z-16.65 F333.3
N1645 G3 X239.272 Y-116.266 I-31.121 J31.807 F2500
N1650 G1 Z-16
N1655 G3 Y-107.266 I-44.272 J4.5
N1660 G1 Z-16.65 F333.3
N1665 G3 X226.122 Y-79.959 I-44.272 J-4.5 F2500
N1670 G1 Z-16
N1675 G3 X219.085 Y-74.347 I-31.122 J-31.807
N1680 G1 Z-16.65 F333.3
N1685 G3 X189.535 Y-67.603 I-24.085 J-37.419 F2500
N1690 G1 Z-16
N1695 G3 X180.761 Y-69.606 I5.465 J-44.163
N1700 G1 Z-16.65 F333.3
N1705 G3 X157.065 Y-88.503 I14.239 J-42.16 F2500
N1710 G1 Z-16
N1715 G3 X153.16 Y-96.612 I37.935 J-23.263
N1720 G1 Z-16.65 F333.3
N1725 G3 Y-126.921 I41.84 J-15.154 F2500
N1730 G1 Z-16
N1735 G3 X157.065 Y-135.03 I41.84 J15.155
N1740 G1 Z-16.65 F333.3
N1745 G3 X180.761 Y-153.926 I37.935 J23.264 F2500
N1750 G1 Z-16
N1755 G3 X189.535 Y-155.929 I14.239 J42.16
N1760 G1 Z-16.65 F333.3
N1765 G3 X199.407 Y-156.047 I5.465 J44.163 F2500
N1770 X219.085 Y-149.185 Z-17.385 I-4.407 J44.281 F333.3
N1775 G1 Z-16
N1780 G3 X226.121 Y-143.573 I-24.085 J37.419
N1785 G1 Z-17.699
N1790 G3 X237.753 Y-124.111 Z-18.5 I-31.121 J31.807
N1795 X239.272 Y-116.266 I-42.753 J12.345 F2500
N1800 G1 Z-16
N1805 G3 Y-107.266 I-44.272 J4.5
N1810 G1 Z-18.5 F333.3
N1815 G3 X226.122 Y-79.959 I-44.272 J-4.5 F2500
N1820 G1 Z-16
N1825 G3 X219.085 Y-74.347 I-31.122 J-31.807
N1830 G1 Z-18.5 F333.3
N1835 G3 X189.535 Y-67.603 I-24.085 J-37.419 F2500
N1840 G1 Z-16
N1845 G3 X180.761 Y-69.606 I5.465 J-44.163
N1850 G1 Z-18.5 F333.3
N1855 G3 X157.065 Y-88.503 I14.239 J-42.16 F2500
N1860 G1 Z-16
N1865 G3 X153.16 Y-96.612 I37.935 J-23.263
N1870 G1 Z-18.5 F333.3
N1875 G3 Y-126.921 I41.84 J-15.154 F2500
N1880 G1 Z-16
N1885 G3 X157.065 Y-135.03 I41.84 J15.155
N1890 G1 Z-18.5 F333.3
N1895 G3 X180.761 Y-153.926 I37.935 J23.264 F2500
N1900 G1 Z-16
N1905 G3 X189.535 Y-155.929 I14.239 J42.16
N1910 G1 Z-18.5 F333.3
N1915 G3 X219.085 Y-149.185 I5.465 J44.163 F2500
N1920 G1 Z-16
N1925 G3 X226.121 Y-143.573 I-24.085 J37.419
N1930 G1 Z-18.5 F333.3
N1935 G3 X237.753 Y-124.111 I-31.121 J31.807 F2500
N1940 G1 Z15
N1945 M9
N1950 G28
N1955 M30
%
