%
(B_2)
(Machine)
(  vendor: Autodesk)
(  model: Generic 3-axis Router)
(  description: MakerspaceLeiden CNC machine)
(T1 D=6 CR=0 - ZMIN=-18.5 - flat end mill)
N10 G90 G94
N15 G17
N20 G21
(When using Fusion 360 for Personal Use, the feedrate of)
(rapid moves is reduced to match the feedrate of cutting)
(moves, which can increase machining time. Unrestricted rapid)
(moves are available with a Fusion 360 Subscription.)
N25 G28

(B_2)
N30 T1 M6
N35 S15000 M3
N40 G54
N45 M7
N50 G0 X123.088 Y-318.677
N55 G43 Z15
N60 G1 Z5 F2500
N65 Z2.5 F333.3
N70 X64.385 Z0.45
N75 G2 X62.264 Y-317.798 Z0.368 J3
N80 G1 X18.968 Y-274.502 Z-1.77
N85 G2 X18.091 Y-272.458 Z-1.85 I2.121 J2.121
N90 G1 X18.09 Y-272.381 F2500
N95 Y-211.152
N100 G2 X18.968 Y-209.031 I3
N105 G1 X62.264 Y-165.735
N110 G2 X64.385 Y-164.856 I2.121 J-2.121
N115 G1 X125.615
N120 G2 X127.736 Y-165.735 J-3
N125 G1 X171.031 Y-209.031
N130 G2 X171.91 Y-211.152 I-2.121 J-2.121
N135 G1 Y-272.381
N140 G2 X171.031 Y-274.502 I-3
N145 G1 X127.736 Y-317.798
N150 G2 X125.615 Y-318.677 I-2.121 J2.121
N155 G1 X64.385
N160 G2 X62.264 Y-317.798 J3
N165 G1 X18.968 Y-274.502
N170 G2 X18.091 Y-272.458 I2.121 J2.121
N175 G1 X18.09 Y-272.381 Z-1.853 F333.3
N180 Y-219.48 Z-3.7
N185 Y-211.152 F2500
N190 G2 X18.968 Y-209.031 I3
N195 G1 X62.264 Y-165.735
N200 G2 X64.385 Y-164.856 I2.121 J-2.121
N205 G1 X125.615
N210 G2 X127.736 Y-165.735 J-3
N215 G1 X171.031 Y-209.031
N220 G2 X171.91 Y-211.152 I-2.121 J-2.121
N225 G1 Y-272.381
N230 G2 X171.031 Y-274.502 I-3
N235 G1 X127.736 Y-317.798
N240 G2 X125.615 Y-318.677 I-2.121 J2.121
N245 G1 X64.385
N250 G2 X62.264 Y-317.798 J3
N255 G1 X18.968 Y-274.502
N260 G2 X18.09 Y-272.381 I2.121 J2.121
N265 G1 Y-219.48
N270 Y-211.152 Z-3.991 F333.3
N275 G2 X18.968 Y-209.031 Z-4.073 I3
N280 G1 X48.873 Y-179.125 Z-5.55
N285 X62.264 Y-165.735 F2500
N290 G2 X64.385 Y-164.856 I2.121 J-2.121
N295 G1 X125.615
N300 G2 X127.736 Y-165.735 J-3
N305 G1 X171.031 Y-209.031
N310 G2 X171.91 Y-211.152 I-2.121 J-2.121
N315 G1 Y-272.381
N320 G2 X171.031 Y-274.502 I-3
N325 G1 X127.736 Y-317.798
N330 G2 X125.615 Y-318.677 I-2.121 J2.121
N335 G1 X64.385
N340 G2 X62.264 Y-317.798 J3
N345 G1 X18.968 Y-274.502
N350 G2 X18.09 Y-272.381 I2.121 J2.121
N355 G1 Y-211.152
N360 G2 X18.968 Y-209.031 I3
N365 G1 X48.873 Y-179.125
N370 X62.264 Y-165.735 Z-6.211 F333.3
N375 G2 X64.385 Y-164.856 Z-6.294 I2.121 J-2.121
N380 G1 X96.069 Z-7.4
N385 X125.615 F2500
N390 G2 X127.736 Y-165.735 J-3
N395 G1 X171.031 Y-209.031
N400 G2 X171.91 Y-211.152 I-2.121 J-2.121
N405 G1 Y-272.381
N410 G2 X171.031 Y-274.502 I-3
N415 G1 X127.736 Y-317.798
N420 G2 X125.615 Y-318.677 I-2.121 J2.121
N425 G1 X64.385
N430 G2 X62.264 Y-317.798 J3
N435 G1 X18.968 Y-274.502
N440 G2 X18.09 Y-272.381 I2.121 J2.121
N445 G1 Y-211.152
N450 G2 X18.968 Y-209.031 I3
N455 G1 X62.264 Y-165.735
N460 G2 X64.385 Y-164.856 I2.121 J-2.121
N465 G1 X96.069
N470 X125.615 Z-8.432 F333.3
N475 G2 X127.736 Y-165.735 Z-8.514 J-3
N480 G1 X142.638 Y-180.637 Z-9.25
N485 X171.031 Y-209.031 F2500
N490 G2 X171.91 Y-211.152 I-2.121 J-2.121
N495 G1 Y-272.381
N500 G2 X171.031 Y-274.502 I-3
N505 G1 X127.736 Y-317.798
N510 G2 X125.615 Y-318.677 I-2.121 J2.121
N515 G1 X64.385
N520 G2 X62.264 Y-317.798 J3
N525 G1 X18.968 Y-274.502
N530 G2 X18.09 Y-272.381 I2.121 J2.121
N535 G1 Y-211.152
N540 G2 X18.968 Y-209.031 I3
N545 G1 X62.264 Y-165.735
N550 G2 X64.385 Y-164.856 I2.121 J-2.121
N555 G1 X125.615
N560 G2 X127.736 Y-165.735 J-3
N565 G1 X142.638 Y-180.637
N570 X171.031 Y-209.031 Z-10.652 F333.3
N575 G2 X171.91 Y-211.152 Z-10.734 I-2.121 J-2.121
N580 G1 Y-221.619 Z-11.1
N585 Y-272.381 F2500
N590 G2 X171.031 Y-274.502 I-3
N595 G1 X127.736 Y-317.798
N600 G2 X125.615 Y-318.677 I-2.121 J2.121
N605 G1 X64.385
N610 G2 X62.264 Y-317.798 J3
N615 G1 X18.968 Y-274.502
N620 G2 X18.09 Y-272.381 I2.121 J2.121
N625 G1 Y-211.152
N630 G2 X18.968 Y-209.031 I3
N635 G1 X62.264 Y-165.735
N640 G2 X64.385 Y-164.856 I2.121 J-2.121
N645 G1 X125.615
N650 G2 X127.736 Y-165.735 J-3
N655 G1 X171.031 Y-209.031
N660 G2 X171.91 Y-211.152 I-2.121 J-2.121
N665 G1 Y-221.619
N670 Y-272.381 Z-12.873 F333.3
N675 G2 X171.129 Y-274.4 Z-12.95 I-3
N680 G1 X171.031 Y-274.502 F2500
N685 X127.736 Y-317.798
N690 G2 X125.615 Y-318.677 I-2.121 J2.121
N695 G1 X64.385
N700 G2 X62.264 Y-317.798 J3
N705 G1 X18.968 Y-274.502
N710 G2 X18.09 Y-272.381 I2.121 J2.121
N715 G1 Y-211.152
N720 G2 X18.968 Y-209.031 I3
N725 G1 X62.264 Y-165.735
N730 G2 X64.385 Y-164.856 I2.121 J-2.121
N735 G1 X125.615
N740 G2 X127.736 Y-165.735 J-3
N745 G1 X171.031 Y-209.031
N750 G2 X171.91 Y-211.152 I-2.121 J-2.121
N755 G1 Y-272.381
N760 G2 X171.129 Y-274.4 I-3
N765 G1 X171.031 Y-274.502 Z-12.955 F333.3
N770 X133.671 Y-311.863 Z-14.8
N775 X127.736 Y-317.798 F2500
N780 G2 X125.615 Y-318.677 I-2.121 J2.121
N785 G1 X64.385
N790 G2 X62.264 Y-317.798 J3
N795 G1 X18.968 Y-274.502
N800 G2 X18.09 Y-272.381 I2.121 J2.121
N805 G1 Y-211.152
N810 G2 X18.968 Y-209.031 I3
N815 G1 X62.264 Y-165.735
N820 G2 X64.385 Y-164.856 I2.121 J-2.121
N825 G1 X125.615
N830 G2 X127.736 Y-165.735 J-3
N835 G1 X171.031 Y-209.031
N840 G2 X171.91 Y-211.152 I-2.121 J-2.121
N845 G1 Y-272.381
N850 G2 X171.031 Y-274.502 I-3
N855 G1 X133.671 Y-311.863
N860 X127.736 Y-317.798 Z-15.093 F333.3
N865 G2 X125.615 Y-318.677 Z-15.175 I-2.121 J2.121
N870 G1 X99.5 Z-16.087
N875 Z-16
N880 X90.5
N885 Z-16.402
N890 X83.388 Z-16.65
N895 X64.385 F2500
N900 G2 X62.264 Y-317.798 J3
N905 G1 X43.798 Y-299.332
N910 Z-16
N915 X37.434 Y-292.968
N920 Z-16.65 F333.3
N925 X18.968 Y-274.502 F2500
N930 G2 X18.09 Y-272.381 I2.121 J2.121
N935 G1 Y-246.266
N940 Z-16
N945 Y-237.266
N950 Z-16.65 F333.3
N955 Y-211.152 F2500
N960 G2 X18.968 Y-209.031 I3
N965 G1 X37.434 Y-190.565
N970 Z-16
N975 X43.798 Y-184.201
N980 Z-16.65 F333.3
N985 X62.264 Y-165.735 F2500
N990 G2 X64.385 Y-164.856 I2.121 J-2.121
N995 G1 X90.5
N1000 Z-16
N1005 X99.5
N1010 Z-16.65 F333.3
N1015 X125.615 F2500
N1020 G2 X127.736 Y-165.735 J-3
N1025 G1 X146.202 Y-184.201
N1030 Z-16
N1035 X152.566 Y-190.565
N1040 Z-16.65 F333.3
N1045 X171.031 Y-209.031 F2500
N1050 G2 X171.91 Y-211.152 I-2.121 J-2.121
N1055 G1 Y-237.266
N1060 Z-16
N1065 Y-246.266
N1070 Z-16.65 F333.3
N1075 Y-272.381 F2500
N1080 G2 X171.031 Y-274.502 I-3
N1085 G1 X152.566 Y-292.968
N1090 Z-16
N1095 X146.202 Y-299.332
N1100 Z-16.65 F333.3
N1105 X127.736 Y-317.798 F2500
N1110 G2 X125.615 Y-318.677 I-2.121 J2.121
N1115 G1 X99.5
N1120 Z-16
N1125 X90.5
N1130 Z-16.65 F333.3
N1135 X83.388 F2500
N1140 X64.385 Z-17.314 F333.3
N1145 G2 X62.264 Y-317.798 Z-17.396 J3
N1150 G1 X43.798 Y-299.332 Z-18.308
N1155 Z-16
N1160 X39.906 Y-295.441
N1165 X37.434 Y-292.968 F2500
N1170 Z-18.5 F333.3
N1175 X18.968 Y-274.502 F2500
N1180 G2 X18.09 Y-272.381 I2.121 J2.121
N1185 G1 Y-246.266
N1190 Z-16
N1195 Y-237.266
N1200 Z-18.5 F333.3
N1205 Y-211.152 F2500
N1210 G2 X18.968 Y-209.031 I3
N1215 G1 X37.434 Y-190.565
N1220 Z-16
N1225 X43.798 Y-184.201
N1230 Z-18.5 F333.3
N1235 X62.264 Y-165.735 F2500
N1240 G2 X64.385 Y-164.856 I2.121 J-2.121
N1245 G1 X90.5
N1250 Z-16
N1255 X99.5
N1260 Z-18.5 F333.3
N1265 X125.615 F2500
N1270 G2 X127.736 Y-165.735 J-3
N1275 G1 X146.202 Y-184.201
N1280 Z-16
N1285 X152.566 Y-190.565
N1290 Z-18.5 F333.3
N1295 X171.031 Y-209.031 F2500
N1300 G2 X171.91 Y-211.152 I-2.121 J-2.121
N1305 G1 Y-237.266
N1310 Z-16
N1315 Y-246.266
N1320 Z-18.5 F333.3
N1325 Y-272.381 F2500
N1330 G2 X171.031 Y-274.502 I-3
N1335 G1 X152.566 Y-292.968
N1340 Z-16
N1345 X146.202 Y-299.332
N1350 Z-18.5 F333.3
N1355 X127.736 Y-317.798 F2500
N1360 G2 X125.615 Y-318.677 I-2.121 J2.121
N1365 G1 X99.5
N1370 Z-16
N1375 X90.5
N1380 Z-18.5 F333.3
N1385 X64.385 F2500
N1390 G2 X62.264 Y-317.798 J3
N1395 G1 X43.798 Y-299.332
N1400 Z-16
N1405 X39.906 Y-295.441
N1410 Z5
N1415 X166.912 Y-294.856
N1420 Z2.5 F333.3
N1425 X225.615 Z0.45
N1430 G2 X227.736 Y-295.735 Z0.368 J-3
N1435 G1 X271.031 Y-339.031 Z-1.77
N1440 G2 X271.909 Y-341.076 Z-1.85 I-2.121 J-2.121
N1445 G1 X271.91 Y-341.152 F2500
N1450 Y-402.381
N1455 G2 X271.031 Y-404.502 I-3
N1460 G1 X227.736 Y-447.798
N1465 G2 X225.615 Y-448.677 I-2.121 J2.121
N1470 G1 X164.385
N1475 G2 X162.264 Y-447.798 J3
N1480 G1 X118.969 Y-404.502
N1485 G2 X118.09 Y-402.381 I2.121 J2.121
N1490 G1 Y-341.152
N1495 G2 X118.969 Y-339.031 I3
N1500 G1 X162.264 Y-295.735
N1505 G2 X164.385 Y-294.856 I2.121 J-2.121
N1510 G1 X225.615
N1515 G2 X227.736 Y-295.735 J-3
N1520 G1 X271.031 Y-339.031
N1525 G2 X271.909 Y-341.076 I-2.121 J-2.121
N1530 G1 X271.91 Y-341.152 Z-1.853 F333.3
N1535 Y-394.053 Z-3.7
N1540 Y-402.381 F2500
N1545 G2 X271.031 Y-404.502 I-3
N1550 G1 X227.736 Y-447.798
N1555 G2 X225.615 Y-448.677 I-2.121 J2.121
N1560 G1 X164.385
N1565 G2 X162.264 Y-447.798 J3
N1570 G1 X118.969 Y-404.502
N1575 G2 X118.09 Y-402.381 I2.121 J2.121
N1580 G1 Y-341.152
N1585 G2 X118.969 Y-339.031 I3
N1590 G1 X162.264 Y-295.735
N1595 G2 X164.385 Y-294.856 I2.121 J-2.121
N1600 G1 X225.615
N1605 G2 X227.736 Y-295.735 J-3
N1610 G1 X271.031 Y-339.031
N1615 G2 X271.91 Y-341.152 I-2.121 J-2.121
N1620 G1 Y-394.053
N1625 Y-402.381 Z-3.991 F333.3
N1630 G2 X271.031 Y-404.502 Z-4.073 I-3
N1635 G1 X241.126 Y-434.408 Z-5.55
N1640 X227.736 Y-447.798 F2500
N1645 G2 X225.615 Y-448.677 I-2.121 J2.121
N1650 G1 X164.385
N1655 G2 X162.264 Y-447.798 J3
N1660 G1 X118.969 Y-404.502
N1665 G2 X118.09 Y-402.381 I2.121 J2.121
N1670 G1 Y-341.152
N1675 G2 X118.969 Y-339.031 I3
N1680 G1 X162.264 Y-295.735
N1685 G2 X164.385 Y-294.856 I2.121 J-2.121
N1690 G1 X225.615
N1695 G2 X227.736 Y-295.735 J-3
N1700 G1 X271.031 Y-339.031
N1705 G2 X271.91 Y-341.152 I-2.121 J-2.121
N1710 G1 Y-402.381
N1715 G2 X271.031 Y-404.502 I-3
N1720 G1 X241.126 Y-434.408
N1725 X227.736 Y-447.798 Z-6.211 F333.3
N1730 G2 X225.615 Y-448.677 Z-6.294 I-2.121 J2.121
N1735 G1 X193.931 Z-7.4
N1740 X164.385 F2500
N1745 G2 X162.264 Y-447.798 J3
N1750 G1 X118.969 Y-404.502
N1755 G2 X118.09 Y-402.381 I2.121 J2.121
N1760 G1 Y-341.152
N1765 G2 X118.969 Y-339.031 I3
N1770 G1 X162.264 Y-295.735
N1775 G2 X164.385 Y-294.856 I2.121 J-2.121
N1780 G1 X225.615
N1785 G2 X227.736 Y-295.735 J-3
N1790 G1 X271.031 Y-339.031
N1795 G2 X271.91 Y-341.152 I-2.121 J-2.121
N1800 G1 Y-402.381
N1805 G2 X271.031 Y-404.502 I-3
N1810 G1 X227.736 Y-447.798
N1815 G2 X225.615 Y-448.677 I-2.121 J2.121
N1820 G1 X193.931
N1825 X164.385 Z-8.432 F333.3
N1830 G2 X162.264 Y-447.798 Z-8.514 J3
N1835 G1 X147.362 Y-432.896 Z-9.25
N1840 X118.969 Y-404.502 F2500
N1845 G2 X118.09 Y-402.381 I2.121 J2.121
N1850 G1 Y-341.152
N1855 G2 X118.969 Y-339.031 I3
N1860 G1 X162.264 Y-295.735
N1865 G2 X164.385 Y-294.856 I2.121 J-2.121
N1870 G1 X225.615
N1875 G2 X227.736 Y-295.735 J-3
N1880 G1 X271.031 Y-339.031
N1885 G2 X271.91 Y-341.152 I-2.121 J-2.121
N1890 G1 Y-402.381
N1895 G2 X271.031 Y-404.502 I-3
N1900 G1 X227.736 Y-447.798
N1905 G2 X225.615 Y-448.677 I-2.121 J2.121
N1910 G1 X164.385
N1915 G2 X162.264 Y-447.798 J3
N1920 G1 X147.362 Y-432.896
N1925 X118.969 Y-404.502 Z-10.652 F333.3
N1930 G2 X118.09 Y-402.381 Z-10.734 I2.121 J2.121
N1935 G1 Y-391.914 Z-11.1
N1940 Y-341.152 F2500
N1945 G2 X118.969 Y-339.031 I3
N1950 G1 X162.264 Y-295.735
N1955 G2 X164.385 Y-294.856 I2.121 J-2.121
N1960 G1 X225.615
N1965 G2 X227.736 Y-295.735 J-3
N1970 G1 X271.031 Y-339.031
N1975 G2 X271.91 Y-341.152 I-2.121 J-2.121
N1980 G1 Y-402.381
N1985 G2 X271.031 Y-404.502 I-3
N1990 G1 X227.736 Y-447.798
N1995 G2 X225.615 Y-448.677 I-2.121 J2.121
N2000 G1 X164.385
N2005 G2 X162.264 Y-447.798 J3
N2010 G1 X118.969 Y-404.502
N2015 G2 X118.09 Y-402.381 I2.121 J2.121
N2020 G1 Y-391.914
N2025 Y-341.152 Z-12.873 F333.3
N2030 G2 X118.871 Y-339.133 Z-12.95 I3
N2035 G1 X118.969 Y-339.031 F2500
N2040 X162.264 Y-295.735
N2045 G2 X164.385 Y-294.856 I2.121 J-2.121
N2050 G1 X225.615
N2055 G2 X227.736 Y-295.735 J-3
N2060 G1 X271.031 Y-339.031
N2065 G2 X271.91 Y-341.152 I-2.121 J-2.121
N2070 G1 Y-402.381
N2075 G2 X271.031 Y-404.502 I-3
N2080 G1 X227.736 Y-447.798
N2085 G2 X225.615 Y-448.677 I-2.121 J2.121
N2090 G1 X164.385
N2095 G2 X162.264 Y-447.798 J3
N2100 G1 X118.969 Y-404.502
N2105 G2 X118.09 Y-402.381 I2.121 J2.121
N2110 G1 Y-341.152
N2115 G2 X118.871 Y-339.133 I3
N2120 G1 X118.969 Y-339.031 Z-12.955 F333.3
N2125 X156.329 Y-301.67 Z-14.8
N2130 X162.264 Y-295.735 F2500
N2135 G2 X164.385 Y-294.856 I2.121 J-2.121
N2140 G1 X225.615
N2145 G2 X227.736 Y-295.735 J-3
N2150 G1 X271.031 Y-339.031
N2155 G2 X271.91 Y-341.152 I-2.121 J-2.121
N2160 G1 Y-402.381
N2165 G2 X271.031 Y-404.502 I-3
N2170 G1 X227.736 Y-447.798
N2175 G2 X225.615 Y-448.677 I-2.121 J2.121
N2180 G1 X164.385
N2185 G2 X162.264 Y-447.798 J3
N2190 G1 X118.969 Y-404.502
N2195 G2 X118.09 Y-402.381 I2.121 J2.121
N2200 G1 Y-341.152
N2205 G2 X118.969 Y-339.031 I3
N2210 G1 X156.329 Y-301.67
N2215 X162.264 Y-295.735 Z-15.093 F333.3
N2220 G2 X164.385 Y-294.856 Z-15.175 I2.121 J-2.121
N2225 G1 X190.5 Z-16.087
N2230 Z-16
N2235 X199.5
N2240 Z-16.402
N2245 X206.613 Z-16.65
N2250 X225.615 F2500
N2255 G2 X227.736 Y-295.735 J-3
N2260 G1 X246.202 Y-314.201
N2265 Z-16
N2270 X252.566 Y-320.565
N2275 Z-16.65 F333.3
N2280 X271.031 Y-339.031 F2500
N2285 G2 X271.91 Y-341.152 I-2.121 J-2.121
N2290 G1 Y-367.266
N2295 Z-16
N2300 Y-376.266
N2305 Z-16.65 F333.3
N2310 Y-402.381 F2500
N2315 G2 X271.031 Y-404.502 I-3
N2320 G1 X252.566 Y-422.968
N2325 Z-16
N2330 X246.202 Y-429.332
N2335 Z-16.65 F333.3
N2340 X227.736 Y-447.798 F2500
N2345 G2 X225.615 Y-448.677 I-2.121 J2.121
N2350 G1 X199.5
N2355 Z-16
N2360 X190.5
N2365 Z-16.65 F333.3
N2370 X164.385 F2500
N2375 G2 X162.264 Y-447.798 J3
N2380 G1 X143.798 Y-429.332
N2385 Z-16
N2390 X137.434 Y-422.968
N2395 Z-16.65 F333.3
N2400 X118.969 Y-404.502 F2500
N2405 G2 X118.09 Y-402.381 I2.121 J2.121
N2410 G1 Y-376.266
N2415 Z-16
N2420 Y-367.266
N2425 Z-16.65 F333.3
N2430 Y-341.152 F2500
N2435 G2 X118.969 Y-339.031 I3
N2440 G1 X137.434 Y-320.565
N2445 Z-16
N2450 X143.798 Y-314.201
N2455 Z-16.65 F333.3
N2460 X162.264 Y-295.735 F2500
N2465 G2 X164.385 Y-294.856 I2.121 J-2.121
N2470 G1 X190.5
N2475 Z-16
N2480 X199.5
N2485 Z-16.65 F333.3
N2490 X206.613 F2500
N2495 X225.615 Z-17.314 F333.3
N2500 G2 X227.736 Y-295.735 Z-17.396 J-3
N2505 G1 X246.202 Y-314.201 Z-18.308
N2510 Z-16
N2515 X250.094 Y-318.093
N2520 X252.566 Y-320.565 F2500
N2525 Z-18.5 F333.3
N2530 X271.031 Y-339.031 F2500
N2535 G2 X271.91 Y-341.152 I-2.121 J-2.121
N2540 G1 Y-367.266
N2545 Z-16
N2550 Y-376.266
N2555 Z-18.5 F333.3
N2560 Y-402.381 F2500
N2565 G2 X271.031 Y-404.502 I-3
N2570 G1 X252.566 Y-422.968
N2575 Z-16
N2580 X246.202 Y-429.332
N2585 Z-18.5 F333.3
N2590 X227.736 Y-447.798 F2500
N2595 G2 X225.615 Y-448.677 I-2.121 J2.121
N2600 G1 X199.5
N2605 Z-16
N2610 X190.5
N2615 Z-18.5 F333.3
N2620 X164.385 F2500
N2625 G2 X162.264 Y-447.798 J3
N2630 G1 X143.798 Y-429.332
N2635 Z-16
N2640 X137.434 Y-422.968
N2645 Z-18.5 F333.3
N2650 X118.969 Y-404.502 F2500
N2655 G2 X118.09 Y-402.381 I2.121 J2.121
N2660 G1 Y-376.266
N2665 Z-16
N2670 Y-367.266
N2675 Z-18.5 F333.3
N2680 Y-341.152 F2500
N2685 G2 X118.969 Y-339.031 I3
N2690 G1 X137.434 Y-320.565
N2695 Z-16
N2700 X143.798 Y-314.201
N2705 Z-18.5 F333.3
N2710 X162.264 Y-295.735 F2500
N2715 G2 X164.385 Y-294.856 I2.121 J-2.121
N2720 G1 X190.5
N2725 Z-16
N2730 X199.5
N2735 Z-18.5 F333.3
N2740 X225.615 F2500
N2745 G2 X227.736 Y-295.735 J-3
N2750 G1 X246.202 Y-314.201
N2755 Z-16
N2760 X250.094 Y-318.093
N2765 Z5
N2770 X228.094 Y-36.093
N2775 Z2.5 F333.3
N2780 X271.031 Y-79.03 Z0.38
N2785 G2 X271.91 Y-81.152 Z0.297 I-2.121 J-2.121
N2790 G1 Y-142.381 Z-1.841
N2795 G2 X271.899 Y-142.64 Z-1.85 I-3
N2800 X271.031 Y-144.502 I-2.989 J0.259 F2500
N2805 G1 X227.736 Y-187.798
N2810 G2 X225.615 Y-188.677 I-2.121 J2.121
N2815 G1 X164.385
N2820 G2 X162.264 Y-187.798 J3
N2825 G1 X118.969 Y-144.502
N2830 G2 X118.09 Y-142.381 I2.121 J2.121
N2835 G1 Y-81.152
N2840 G2 X118.969 Y-79.03 I3
N2845 G1 X162.264 Y-35.735
N2850 G2 X164.385 Y-34.856 I2.121 J-2.121
N2855 G1 X225.615
N2860 G2 X227.736 Y-35.735 J-3
N2865 G1 X271.031 Y-79.03
N2870 G2 X271.91 Y-81.152 I-2.121 J-2.121
N2875 G1 Y-142.381
N2880 G2 X271.899 Y-142.64 I-3
N2885 X271.031 Y-144.502 Z-1.923 I-2.989 J0.259 F333.3
N2890 G1 X235.054 Y-180.481 Z-3.7
N2895 X227.736 Y-187.798 F2500
N2900 G2 X225.615 Y-188.677 I-2.121 J2.121
N2905 G1 X164.385
N2910 G2 X162.264 Y-187.798 J3
N2915 G1 X118.969 Y-144.502
N2920 G2 X118.09 Y-142.381 I2.121 J2.121
N2925 G1 Y-81.152
N2930 G2 X118.969 Y-79.03 I3
N2935 G1 X162.264 Y-35.735
N2940 G2 X164.385 Y-34.856 I2.121 J-2.121
N2945 G1 X225.615
N2950 G2 X227.736 Y-35.735 J-3
N2955 G1 X271.031 Y-79.03
N2960 G2 X271.91 Y-81.152 I-2.121 J-2.121
N2965 G1 Y-142.381
N2970 G2 X271.031 Y-144.502 I-3
N2975 G1 X235.054 Y-180.481
N2980 X227.736 Y-187.798 Z-4.061 F333.3
N2985 G2 X225.615 Y-188.677 Z-4.144 I-2.121 J2.121
N2990 G1 X185.343 Z-5.55
N2995 X164.385 F2500
N3000 G2 X162.264 Y-187.798 J3
N3005 G1 X118.969 Y-144.502
N3010 G2 X118.09 Y-142.381 I2.121 J2.121
N3015 G1 Y-81.152
N3020 G2 X118.969 Y-79.03 I3
N3025 G1 X162.264 Y-35.735
N3030 G2 X164.385 Y-34.856 I2.121 J-2.121
N3035 G1 X225.615
N3040 G2 X227.736 Y-35.735 J-3
N3045 G1 X271.031 Y-79.03
N3050 G2 X271.91 Y-81.152 I-2.121 J-2.121
N3055 G1 Y-142.381
N3060 G2 X271.031 Y-144.502 I-3
N3065 G1 X227.736 Y-187.798
N3070 G2 X225.615 Y-188.677 I-2.121 J2.121
N3075 G1 X185.343
N3080 X164.385 Z-6.282 F333.3
N3085 G2 X162.264 Y-187.798 Z-6.364 J3
N3090 G1 X141.289 Y-166.823 Z-7.4
N3095 X118.969 Y-144.502 F2500
N3100 G2 X118.09 Y-142.381 I2.121 J2.121
N3105 G1 Y-81.152
N3110 G2 X118.969 Y-79.03 I3
N3115 G1 X162.264 Y-35.735
N3120 G2 X164.385 Y-34.856 I2.121 J-2.121
N3125 G1 X225.615
N3130 G2 X227.736 Y-35.735 J-3
N3135 G1 X271.031 Y-79.03
N3140 G2 X271.91 Y-81.152 I-2.121 J-2.121
N3145 G1 Y-142.381
N3150 G2 X271.031 Y-144.502 I-3
N3155 G1 X227.736 Y-187.798
N3160 G2 X225.615 Y-188.677 I-2.121 J2.121
N3165 G1 X164.385
N3170 G2 X162.264 Y-187.798 J3
N3175 G1 X141.289 Y-166.823
N3180 X118.969 Y-144.502 Z-8.502 F333.3
N3185 G2 X118.09 Y-142.381 Z-8.585 I2.121 J2.121
N3190 G1 Y-123.326 Z-9.25
N3195 Y-81.152 F2500
N3200 G2 X118.969 Y-79.03 I3
N3205 G1 X162.264 Y-35.735
N3210 G2 X164.385 Y-34.856 I2.121 J-2.121
N3215 G1 X225.615
N3220 G2 X227.736 Y-35.735 J-3
N3225 G1 X271.031 Y-79.03
N3230 G2 X271.91 Y-81.152 I-2.121 J-2.121
N3235 G1 Y-142.381
N3240 G2 X271.031 Y-144.502 I-3
N3245 G1 X227.736 Y-187.798
N3250 G2 X225.615 Y-188.677 I-2.121 J2.121
N3255 G1 X164.385
N3260 G2 X162.264 Y-187.798 J3
N3265 G1 X118.969 Y-144.502
N3270 G2 X118.09 Y-142.381 I2.121 J2.121
N3275 G1 Y-123.326
N3280 Y-81.152 Z-10.723 F333.3
N3285 G2 X118.969 Y-79.03 Z-10.805 I3
N3290 G1 X124.941 Y-73.058 Z-11.1
N3295 X162.264 Y-35.735 F2500
N3300 G2 X164.385 Y-34.856 I2.121 J-2.121
N3305 G1 X225.615
N3310 G2 X227.736 Y-35.735 J-3
N3315 G1 X271.031 Y-79.03
N3320 G2 X271.91 Y-81.152 I-2.121 J-2.121
N3325 G1 Y-142.381
N3330 G2 X271.031 Y-144.502 I-3
N3335 G1 X227.736 Y-187.798
N3340 G2 X225.615 Y-188.677 I-2.121 J2.121
N3345 G1 X164.385
N3350 G2 X162.264 Y-187.798 J3
N3355 G1 X118.969 Y-144.502
N3360 G2 X118.09 Y-142.381 I2.121 J2.121
N3365 G1 Y-81.152
N3370 G2 X118.969 Y-79.03 I3
N3375 G1 X124.941 Y-73.058
N3380 X162.264 Y-35.735 Z-12.943 F333.3
N3385 X162.31 Y-35.689 Z-12.945
N3390 X162.357 Y-35.645 Z-12.948
N3395 X162.406 Y-35.601 Z-12.95
N3400 G2 X164.385 Y-34.856 I1.979 J-2.255 F2500
N3405 G1 X225.615
N3410 G2 X227.736 Y-35.735 J-3
N3415 G1 X271.031 Y-79.03
N3420 G2 X271.91 Y-81.152 I-2.121 J-2.121
N3425 G1 Y-142.381
N3430 G2 X271.031 Y-144.502 I-3
N3435 G1 X227.736 Y-187.798
N3440 G2 X225.615 Y-188.677 I-2.121 J2.121
N3445 G1 X164.385
N3450 G2 X162.264 Y-187.798 J3
N3455 G1 X118.969 Y-144.502
N3460 G2 X118.09 Y-142.381 I2.121 J2.121
N3465 G1 Y-81.152
N3470 G2 X118.969 Y-79.03 I3
N3475 G1 X162.264 Y-35.735
N3480 X162.31 Y-35.689
N3485 X162.357 Y-35.645
N3490 X162.406 Y-35.601
N3495 G2 X164.385 Y-34.856 Z-13.025 I1.979 J-2.255 F333.3
N3500 G1 X215.201 Z-14.8
N3505 X225.615 F2500
N3510 G2 X227.736 Y-35.735 J-3
N3515 G1 X271.031 Y-79.03
N3520 G2 X271.91 Y-81.152 I-2.121 J-2.121
N3525 G1 Y-142.381
N3530 G2 X271.031 Y-144.502 I-3
N3535 G1 X227.736 Y-187.798
N3540 G2 X225.615 Y-188.677 I-2.121 J2.121
N3545 G1 X164.385
N3550 G2 X162.264 Y-187.798 J3
N3555 G1 X118.969 Y-144.502
N3560 G2 X118.09 Y-142.381 I2.121 J2.121
N3565 G1 Y-81.152
N3570 G2 X118.969 Y-79.03 I3
N3575 G1 X162.264 Y-35.735
N3580 G2 X164.385 Y-34.856 I2.121 J-2.121
N3585 G1 X215.201
N3590 X225.615 Z-15.164 F333.3
N3595 G2 X227.736 Y-35.735 Z-15.246 J-3
N3600 G1 X246.202 Y-54.201 Z-16.158
N3605 Z-16
N3610 X252.566 Y-60.565
N3615 Z-16.472
N3620 X256.166 Y-64.165 Z-16.65
N3625 X271.031 Y-79.03 F2500
N3630 G2 X271.91 Y-81.152 I-2.121 J-2.121
N3635 G1 Y-107.266
N3640 Z-16
N3645 Y-116.266
N3650 Z-16.65 F333.3
N3655 Y-142.381 F2500
N3660 G2 X271.031 Y-144.502 I-3
N3665 G1 X252.566 Y-162.968
N3670 Z-16
N3675 X246.202 Y-169.332
N3680 Z-16.65 F333.3
N3685 X227.736 Y-187.798 F2500
N3690 G2 X225.615 Y-188.677 I-2.121 J2.121
N3695 G1 X199.5
N3700 Z-16
N3705 X190.5
N3710 Z-16.65 F333.3
N3715 X164.385 F2500
N3720 G2 X162.264 Y-187.798 J3
N3725 G1 X143.798 Y-169.332
N3730 Z-16
N3735 X137.434 Y-162.968
N3740 Z-16.65 F333.3
N3745 X118.969 Y-144.502 F2500
N3750 G2 X118.09 Y-142.381 I2.121 J2.121
N3755 G1 Y-116.266
N3760 Z-16
N3765 Y-107.266
N3770 Z-16.65 F333.3
N3775 Y-81.152 F2500
N3780 G2 X118.969 Y-79.03 I3
N3785 G1 X137.434 Y-60.565
N3790 Z-16
N3795 X143.798 Y-54.201
N3800 Z-16.65 F333.3
N3805 X162.264 Y-35.735 F2500
N3810 G2 X164.385 Y-34.856 I2.121 J-2.121
N3815 G1 X190.5
N3820 Z-16
N3825 X199.5
N3830 Z-16.65 F333.3
N3835 X225.615 F2500
N3840 G2 X227.736 Y-35.735 J-3
N3845 G1 X246.202 Y-54.201
N3850 Z-16
N3855 X252.566 Y-60.565
N3860 Z-16.65 F333.3
N3865 X256.166 Y-64.165 F2500
N3870 X271.031 Y-79.03 Z-17.384 F333.3
N3875 G2 X271.91 Y-81.152 Z-17.466 I-2.121 J-2.121
N3880 G1 Y-107.266 Z-18.378
N3885 Z-16
N3890 Y-110.75
N3895 Y-116.266 F2500
N3900 Z-18.5 F333.3
N3905 Y-142.381 F2500
N3910 G2 X271.031 Y-144.502 I-3
N3915 G1 X252.566 Y-162.968
N3920 Z-16
N3925 X246.202 Y-169.332
N3930 Z-18.5 F333.3
N3935 X227.736 Y-187.798 F2500
N3940 G2 X225.615 Y-188.677 I-2.121 J2.121
N3945 G1 X199.5
N3950 Z-16
N3955 X190.5
N3960 Z-18.5 F333.3
N3965 X164.385 F2500
N3970 G2 X162.264 Y-187.798 J3
N3975 G1 X143.798 Y-169.332
N3980 Z-16
N3985 X137.434 Y-162.968
N3990 Z-18.5 F333.3
N3995 X118.969 Y-144.502 F2500
N4000 G2 X118.09 Y-142.381 I2.121 J2.121
N4005 G1 Y-116.266
N4010 Z-16
N4015 Y-107.266
N4020 Z-18.5 F333.3
N4025 Y-81.152 F2500
N4030 G2 X118.969 Y-79.03 I3
N4035 G1 X137.434 Y-60.565
N4040 Z-16
N4045 X143.798 Y-54.201
N4050 Z-18.5 F333.3
N4055 X162.264 Y-35.735 F2500
N4060 G2 X164.385 Y-34.856 I2.121 J-2.121
N4065 G1 X190.5
N4070 Z-16
N4075 X199.5
N4080 Z-18.5 F333.3
N4085 X225.615 F2500
N4090 G2 X227.736 Y-35.735 J-3
N4095 G1 X246.202 Y-54.201
N4100 Z-16
N4105 X252.566 Y-60.565
N4110 Z-18.5 F333.3
N4115 X271.031 Y-79.03 F2500
N4120 G2 X271.91 Y-81.152 I-2.121 J-2.121
N4125 G1 Y-107.266
N4130 Z-16
N4135 Y-110.75
N4140 Z5
N4145 X61.906 Y-577.44
N4150 Z2.5 F333.3
N4155 X18.968 Y-534.502 Z0.38
N4160 G2 X18.09 Y-532.381 Z0.297 I2.121 J2.121
N4165 G1 Y-471.152 Z-1.841
N4170 G2 X18.101 Y-470.893 Z-1.85 I3
N4175 X18.968 Y-469.031 I2.989 J-0.259 F2500
N4180 G1 X62.264 Y-425.735
N4185 G2 X64.385 Y-424.856 I2.121 J-2.121
N4190 G1 X125.615
N4195 G2 X127.736 Y-425.735 J-3
N4200 G1 X171.031 Y-469.031
N4205 G2 X171.91 Y-471.152 I-2.121 J-2.121
N4210 G1 Y-532.381
N4215 G2 X171.031 Y-534.502 I-3
N4220 G1 X127.736 Y-577.798
N4225 G2 X125.615 Y-578.677 I-2.121 J2.121
N4230 G1 X64.385
N4235 G2 X62.264 Y-577.798 J3
N4240 G1 X18.968 Y-534.502
N4245 G2 X18.09 Y-532.381 I2.121 J2.121
N4250 G1 Y-471.152
N4255 G2 X18.101 Y-470.893 I3
N4260 X18.968 Y-469.031 Z-1.923 I2.989 J-0.259 F333.3
N4265 G1 X54.946 Y-433.053 Z-3.7
N4270 X62.264 Y-425.735 F2500
N4275 G2 X64.385 Y-424.856 I2.121 J-2.121
N4280 G1 X125.615
N4285 G2 X127.736 Y-425.735 J-3
N4290 G1 X171.031 Y-469.031
N4295 G2 X171.91 Y-471.152 I-2.121 J-2.121
N4300 G1 Y-532.381
N4305 G2 X171.031 Y-534.502 I-3
N4310 G1 X127.736 Y-577.798
N4315 G2 X125.615 Y-578.677 I-2.121 J2.121
N4320 G1 X64.385
N4325 G2 X62.264 Y-577.798 J3
N4330 G1 X18.968 Y-534.502
N4335 G2 X18.09 Y-532.381 I2.121 J2.121
N4340 G1 Y-471.152
N4345 G2 X18.968 Y-469.031 I3
N4350 G1 X54.946 Y-433.053
N4355 X62.264 Y-425.735 Z-4.061 F333.3
N4360 G2 X64.385 Y-424.856 Z-4.144 I2.121 J-2.121
N4365 G1 X104.657 Z-5.55
N4370 X125.615 F2500
N4375 G2 X127.736 Y-425.735 J-3
N4380 G1 X171.031 Y-469.031
N4385 G2 X171.91 Y-471.152 I-2.121 J-2.121
N4390 G1 Y-532.381
N4395 G2 X171.031 Y-534.502 I-3
N4400 G1 X127.736 Y-577.798
N4405 G2 X125.615 Y-578.677 I-2.121 J2.121
N4410 G1 X64.385
N4415 G2 X62.264 Y-577.798 J3
N4420 G1 X18.968 Y-534.502
N4425 G2 X18.09 Y-532.381 I2.121 J2.121
N4430 G1 Y-471.152
N4435 G2 X18.968 Y-469.031 I3
N4440 G1 X62.264 Y-425.735
N4445 G2 X64.385 Y-424.856 I2.121 J-2.121
N4450 G1 X104.657
N4455 X125.615 Z-6.282 F333.3
N4460 G2 X127.736 Y-425.735 Z-6.364 J-3
N4465 G1 X148.711 Y-446.71 Z-7.4
N4470 X171.031 Y-469.031 F2500
N4475 G2 X171.91 Y-471.152 I-2.121 J-2.121
N4480 G1 Y-532.381
N4485 G2 X171.031 Y-534.502 I-3
N4490 G1 X127.736 Y-577.798
N4495 G2 X125.615 Y-578.677 I-2.121 J2.121
N4500 G1 X64.385
N4505 G2 X62.264 Y-577.798 J3
N4510 G1 X18.968 Y-534.502
N4515 G2 X18.09 Y-532.381 I2.121 J2.121
N4520 G1 Y-471.152
N4525 G2 X18.968 Y-469.031 I3
N4530 G1 X62.264 Y-425.735
N4535 G2 X64.385 Y-424.856 I2.121 J-2.121
N4540 G1 X125.615
N4545 G2 X127.736 Y-425.735 J-3
N4550 G1 X148.711 Y-446.71
N4555 X171.031 Y-469.031 Z-8.502 F333.3
N4560 G2 X171.91 Y-471.152 Z-8.585 I-2.121 J-2.121
N4565 G1 Y-490.207 Z-9.25
N4570 Y-532.381 F2500
N4575 G2 X171.031 Y-534.502 I-3
N4580 G1 X127.736 Y-577.798
N4585 G2 X125.615 Y-578.677 I-2.121 J2.121
N4590 G1 X64.385
N4595 G2 X62.264 Y-577.798 J3
N4600 G1 X18.968 Y-534.502
N4605 G2 X18.09 Y-532.381 I2.121 J2.121
N4610 G1 Y-471.152
N4615 G2 X18.968 Y-469.031 I3
N4620 G1 X62.264 Y-425.735
N4625 G2 X64.385 Y-424.856 I2.121 J-2.121
N4630 G1 X125.615
N4635 G2 X127.736 Y-425.735 J-3
N4640 G1 X171.031 Y-469.031
N4645 G2 X171.91 Y-471.152 I-2.121 J-2.121
N4650 G1 Y-490.207
N4655 Y-532.381 Z-10.723 F333.3
N4660 G2 X171.031 Y-534.502 Z-10.805 I-3
N4665 G1 X165.059 Y-540.475 Z-11.1
N4670 X127.736 Y-577.798 F2500
N4675 G2 X125.615 Y-578.677 I-2.121 J2.121
N4680 G1 X64.385
N4685 G2 X62.264 Y-577.798 J3
N4690 G1 X18.968 Y-534.502
N4695 G2 X18.09 Y-532.381 I2.121 J2.121
N4700 G1 Y-471.152
N4705 G2 X18.968 Y-469.031 I3
N4710 G1 X62.264 Y-425.735
N4715 G2 X64.385 Y-424.856 I2.121 J-2.121
N4720 G1 X125.615
N4725 G2 X127.736 Y-425.735 J-3
N4730 G1 X171.031 Y-469.031
N4735 G2 X171.91 Y-471.152 I-2.121 J-2.121
N4740 G1 Y-532.381
N4745 G2 X171.031 Y-534.502 I-3
N4750 G1 X165.059 Y-540.475
N4755 X127.736 Y-577.798 Z-12.943 F333.3
N4760 X127.69 Y-577.844 Z-12.945
N4765 X127.643 Y-577.888 Z-12.948
N4770 X127.594 Y-577.931 Z-12.95
N4775 G2 X125.615 Y-578.677 I-1.979 J2.254 F2500
N4780 G1 X64.385
N4785 G2 X62.264 Y-577.798 J3
N4790 G1 X18.968 Y-534.502
N4795 G2 X18.09 Y-532.381 I2.121 J2.121
N4800 G1 Y-471.152
N4805 G2 X18.968 Y-469.031 I3
N4810 G1 X62.264 Y-425.735
N4815 G2 X64.385 Y-424.856 I2.121 J-2.121
N4820 G1 X125.615
N4825 G2 X127.736 Y-425.735 J-3
N4830 G1 X171.031 Y-469.031
N4835 G2 X171.91 Y-471.152 I-2.121 J-2.121
N4840 G1 Y-532.381
N4845 G2 X171.031 Y-534.502 I-3
N4850 G1 X127.736 Y-577.798
N4855 X127.69 Y-577.844
N4860 X127.643 Y-577.888
N4865 X127.594 Y-577.931
N4870 G2 X125.615 Y-578.677 Z-13.025 I-1.979 J2.254 F333.3
N4875 G1 X74.799 Z-14.8
N4880 X64.385 F2500
N4885 G2 X62.264 Y-577.798 J3
N4890 G1 X18.968 Y-534.502
N4895 G2 X18.09 Y-532.381 I2.121 J2.121
N4900 G1 Y-471.152
N4905 G2 X18.968 Y-469.031 I3
N4910 G1 X62.264 Y-425.735
N4915 G2 X64.385 Y-424.856 I2.121 J-2.121
N4920 G1 X125.615
N4925 G2 X127.736 Y-425.735 J-3
N4930 G1 X171.031 Y-469.031
N4935 G2 X171.91 Y-471.152 I-2.121 J-2.121
N4940 G1 Y-532.381
N4945 G2 X171.031 Y-534.502 I-3
N4950 G1 X127.736 Y-577.798
N4955 G2 X125.615 Y-578.677 I-2.121 J2.121
N4960 G1 X74.799
N4965 X64.385 Z-15.164 F333.3
N4970 G2 X62.264 Y-577.798 Z-15.246 J3
N4975 G1 X43.798 Y-559.332 Z-16.158
N4980 Z-16
N4985 X37.434 Y-552.968
N4990 Z-16.472
N4995 X33.834 Y-549.368 Z-16.65
N5000 X18.968 Y-534.502 F2500
N5005 G2 X18.09 Y-532.381 I2.121 J2.121
N5010 G1 Y-506.266
N5015 Z-16
N5020 Y-497.266
N5025 Z-16.65 F333.3
N5030 Y-471.152 F2500
N5035 G2 X18.968 Y-469.031 I3
N5040 G1 X37.434 Y-450.565
N5045 Z-16
N5050 X43.798 Y-444.201
N5055 Z-16.65 F333.3
N5060 X62.264 Y-425.735 F2500
N5065 G2 X64.385 Y-424.856 I2.121 J-2.121
N5070 G1 X90.5
N5075 Z-16
N5080 X99.5
N5085 Z-16.65 F333.3
N5090 X125.615 F2500
N5095 G2 X127.736 Y-425.735 J-3
N5100 G1 X146.202 Y-444.201
N5105 Z-16
N5110 X152.566 Y-450.565
N5115 Z-16.65 F333.3
N5120 X171.031 Y-469.031 F2500
N5125 G2 X171.91 Y-471.152 I-2.121 J-2.121
N5130 G1 Y-497.266
N5135 Z-16
N5140 Y-506.266
N5145 Z-16.65 F333.3
N5150 Y-532.381 F2500
N5155 G2 X171.031 Y-534.502 I-3
N5160 G1 X152.566 Y-552.968
N5165 Z-16
N5170 X146.202 Y-559.332
N5175 Z-16.65 F333.3
N5180 X127.736 Y-577.798 F2500
N5185 G2 X125.615 Y-578.677 I-2.121 J2.121
N5190 G1 X99.5
N5195 Z-16
N5200 X90.5
N5205 Z-16.65 F333.3
N5210 X64.385 F2500
N5215 G2 X62.264 Y-577.798 J3
N5220 G1 X43.798 Y-559.332
N5225 Z-16
N5230 X37.434 Y-552.968
N5235 Z-16.65 F333.3
N5240 X33.834 Y-549.368 F2500
N5245 X18.968 Y-534.502 Z-17.384 F333.3
N5250 G2 X18.09 Y-532.381 Z-17.466 I2.121 J2.121
N5255 G1 Y-506.266 Z-18.378
N5260 Z-16
N5265 Y-502.783
N5270 Y-497.266 F2500
N5275 Z-18.5 F333.3
N5280 Y-471.152 F2500
N5285 G2 X18.968 Y-469.031 I3
N5290 G1 X37.434 Y-450.565
N5295 Z-16
N5300 X43.798 Y-444.201
N5305 Z-18.5 F333.3
N5310 X62.264 Y-425.735 F2500
N5315 G2 X64.385 Y-424.856 I2.121 J-2.121
N5320 G1 X90.5
N5325 Z-16
N5330 X99.5
N5335 Z-18.5 F333.3
N5340 X125.615 F2500
N5345 G2 X127.736 Y-425.735 J-3
N5350 G1 X146.202 Y-444.201
N5355 Z-16
N5360 X152.566 Y-450.565
N5365 Z-18.5 F333.3
N5370 X171.031 Y-469.031 F2500
N5375 G2 X171.91 Y-471.152 I-2.121 J-2.121
N5380 G1 Y-497.266
N5385 Z-16
N5390 Y-506.266
N5395 Z-18.5 F333.3
N5400 Y-532.381 F2500
N5405 G2 X171.031 Y-534.502 I-3
N5410 G1 X152.566 Y-552.968
N5415 Z-16
N5420 X146.202 Y-559.332
N5425 Z-18.5 F333.3
N5430 X127.736 Y-577.798 F2500
N5435 G2 X125.615 Y-578.677 I-2.121 J2.121
N5440 G1 X99.5
N5445 Z-16
N5450 X90.5
N5455 Z-18.5 F333.3
N5460 X64.385 F2500
N5465 G2 X62.264 Y-577.798 J3
N5470 G1 X43.798 Y-559.332
N5475 Z-16
N5480 X37.434 Y-552.968
N5485 Z-18.5 F333.3
N5490 X18.968 Y-534.502 F2500
N5495 G2 X18.09 Y-532.381 I2.121 J2.121
N5500 G1 Y-506.266
N5505 Z-16
N5510 Y-502.783
N5515 Z15
N5520 M9
N5525 G28
N5530 M30
%
