%
(B_last)
(Machine)
(  vendor: Autodesk)
(  model: Generic 3-axis Router)
(  description: MakerspaceLeiden CNC machine)
(T1 D=6 CR=0 - ZMIN=-18.5 - flat end mill)
N10 G90 G94
N15 G17
N20 G21
(When using Fusion 360 for Personal Use, the feedrate of)
(rapid moves is reduced to match the feedrate of cutting)
(moves, which can increase machining time. Unrestricted rapid)
(moves are available with a Fusion 360 Subscription.)
N25 G28

(B_last)
N30 T1 M6
N35 S15000 M3
N40 G54
N45 M7
N50 G0 X874.568 Y-593
N55 G43 Z15
N60 G1 Z5 F2500
N65 Z3
N70 Z2.5 F333.3
N75 X750 Z-1.85
N80 X325 F2500
N85 G2 X297 Y-565 J28
N90 G1 Y-45
N95 G2 X325 Y-17 I28
N100 G1 X1175
N105 G2 X1203 Y-45 J-28
N110 G1 Y-565
N115 G2 X1175 Y-593 I-28
N120 G1 X750
N125 X480.277 Z-3.7 F333.3
N130 X325 F2500
N135 G2 X297 Y-565 J28
N140 G1 Y-45
N145 G2 X325 Y-17 I28
N150 G1 X1175
N155 G2 X1203 Y-45 J-28
N160 G1 Y-565
N165 G2 X1175 Y-593 I-28
N170 G1 X480.277
N175 X325 Z-4.765 F333.3
N180 G2 X297 Y-565 Z-5.067 J28
N185 G1 Y-494.535 Z-5.55
N190 Y-45 F2500
N195 G2 X325 Y-17 I28
N200 G1 X1175
N205 G2 X1203 Y-45 J-28
N210 G1 Y-565
N215 G2 X1175 Y-593 I-28
N220 G1 X325
N225 G2 X297 Y-565 J28
N230 G1 Y-494.535
N235 Y-224.812 Z-7.4 F333.3
N240 Y-45 F2500
N245 G2 X325 Y-17 I28
N250 G1 X1175
N255 G2 X1203 Y-45 J-28
N260 G1 Y-565
N265 G2 X1175 Y-593 I-28
N270 G1 X325
N275 G2 X297 Y-565 J28
N280 G1 Y-224.812
N285 Y-45 Z-8.633 F333.3
N290 G2 X325 Y-17 Z-8.935 I28
N295 G1 X370.929 Z-9.25
N300 X1175 F2500
N305 G2 X1203 Y-45 J-28
N310 G1 Y-565
N315 G2 X1175 Y-593 I-28
N320 G1 X325
N325 G2 X297 Y-565 J28
N330 G1 Y-45
N335 G2 X325 Y-17 I28
N340 G1 X370.929
N345 X640.653 Z-11.1 F333.3
N350 X1175 F2500
N355 G2 X1203 Y-45 J-28
N360 G1 Y-565
N365 G2 X1175 Y-593 I-28
N370 G1 X325
N375 G2 X297 Y-565 J28
N380 G1 Y-45
N385 G2 X325 Y-17 I28
N390 G1 X640.653
N395 X910.376 Z-12.95 F333.3
N400 X1175 F2500
N405 G2 X1203 Y-45 J-28
N410 G1 Y-565
N415 G2 X1175 Y-593 I-28
N420 G1 X325
N425 G2 X297 Y-565 J28
N430 G1 Y-45
N435 G2 X325 Y-17 I28
N440 G1 X910.376
N445 X1175 Z-14.765 F333.3
N450 G2 X1180.071 Y-17.463 Z-14.8 J-28
N455 X1203 Y-45 I-5.071 J-27.537 F2500
N460 G1 Y-565
N465 G2 X1175 Y-593 I-28
N470 G1 X325
N475 G2 X297 Y-565 J28
N480 G1 Y-45
N485 G2 X325 Y-17 I28
N490 G1 X1175
N495 G2 X1180.071 Y-17.463 J-28
N500 X1203 Y-45 Z-15.067 I-5.071 J-27.537 F333.3
N505 G1 Y-181.073 Z-16
N510 Y-189.5
N515 Z-16.058
N520 Y-220.5 Z-16.27
N525 Z-16
N530 Y-229.5
N535 Z-16.332
N540 Y-260.5 Z-16.545
N545 Z-16
N550 Y-269.5
N555 Z-16.607
N560 Y-275.841 Z-16.65
N565 Y-300.5 F2500
N570 Z-16
N575 Y-309.5
N580 Z-16.65 F333.3
N585 Y-340.5 F2500
N590 Z-16
N595 Y-349.5
N600 Z-16.65 F333.3
N605 Y-380.5 F2500
N610 Z-16
N615 Y-389.5
N620 Z-16.65 F333.3
N625 Y-420.5 F2500
N630 Z-16
N635 Y-429.5
N640 Z-16.65 F333.3
N645 Y-460.5 F2500
N650 Z-16
N655 Y-469.5
N660 Z-16.65 F333.3
N665 Y-500.5 F2500
N670 Z-16
N675 Y-509.5
N680 Z-16.65 F333.3
N685 Y-540.5 F2500
N690 Z-16
N695 Y-549.5
N700 Z-16.65 F333.3
N705 Y-565 F2500
N710 G2 X1197.724 Y-581.358 I-28
N715 G1 Z-16
N720 G2 X1191.361 Y-587.723 I-22.724 J16.358
N725 G1 Z-16.65 F333.3
N730 G2 X1175 Y-593 I-16.361 J22.723 F2500
N735 G1 X1160.18
N740 Z-16
N745 X1151.18
N750 Z-16.65 F333.3
N755 X1121.55 F2500
N760 Z-16
N765 X1112.55
N770 Z-16.65 F333.3
N775 X1082.91 F2500
N780 Z-16
N785 X1073.91
N790 Z-16.65 F333.3
N795 X1044.27 F2500
N800 Z-16
N805 X1035.27
N810 Z-16.65 F333.3
N815 X1005.64 F2500
N820 Z-16
N825 X996.64
N830 Z-16.65 F333.3
N835 X967 F2500
N840 Z-16
N845 X958
N850 Z-16.65 F333.3
N855 X928.364 F2500
N860 Z-16
N865 X919.364
N870 Z-16.65 F333.3
N875 X889.727 F2500
N880 Z-16
N885 X880.727
N890 Z-16.65 F333.3
N895 X851.091 F2500
N900 Z-16
N905 X842.091
N910 Z-16.65 F333.3
N915 X812.455 F2500
N920 Z-16
N925 X803.455
N930 Z-16.65 F333.3
N935 X773.818 F2500
N940 Z-16
N945 X764.818
N950 Z-16.65 F333.3
N955 X735.182 F2500
N960 Z-16
N965 X726.182
N970 Z-16.65 F333.3
N975 X696.545 F2500
N980 Z-16
N985 X687.545
N990 Z-16.65 F333.3
N995 X657.909 F2500
N1000 Z-16
N1005 X648.909
N1010 Z-16.65 F333.3
N1015 X619.273 F2500
N1020 Z-16
N1025 X610.273
N1030 Z-16.65 F333.3
N1035 X580.636 F2500
N1040 Z-16
N1045 X571.636
N1050 Z-16.65 F333.3
N1055 X542 F2500
N1060 Z-16
N1065 X533
N1070 Z-16.65 F333.3
N1075 X503.364 F2500
N1080 Z-16
N1085 X494.364
N1090 Z-16.65 F333.3
N1095 X464.727 F2500
N1100 Z-16
N1105 X455.727
N1110 Z-16.65 F333.3
N1115 X426.091 F2500
N1120 Z-16
N1125 X417.091
N1130 Z-16.65 F333.3
N1135 X387.455 F2500
N1140 Z-16
N1145 X378.455
N1150 Z-16.65 F333.3
N1155 X348.818 F2500
N1160 Z-16
N1165 X339.818
N1170 Z-16.65 F333.3
N1175 X325 F2500
N1180 G2 X308.64 Y-587.724 J28
N1185 G1 Z-16
N1190 G2 X302.276 Y-581.36 I16.36 J22.724
N1195 G1 Z-16.65 F333.3
N1200 G2 X297 Y-565 I22.724 J16.36 F2500
N1205 G1 Y-549.5
N1210 Z-16
N1215 Y-540.5
N1220 Z-16.65 F333.3
N1225 Y-509.5 F2500
N1230 Z-16
N1235 Y-500.5
N1240 Z-16.65 F333.3
N1245 Y-469.5 F2500
N1250 Z-16
N1255 Y-460.5
N1260 Z-16.65 F333.3
N1265 Y-429.5 F2500
N1270 Z-16
N1275 Y-420.5
N1280 Z-16.65 F333.3
N1285 Y-389.5 F2500
N1290 Z-16
N1295 Y-380.5
N1300 Z-16.65 F333.3
N1305 Y-349.5 F2500
N1310 Z-16
N1315 Y-340.5
N1320 Z-16.65 F333.3
N1325 Y-309.5 F2500
N1330 Z-16
N1335 Y-300.5
N1340 Z-16.65 F333.3
N1345 Y-269.5 F2500
N1350 Z-16
N1355 Y-260.5
N1360 Z-16.65 F333.3
N1365 Y-229.5 F2500
N1370 Z-16
N1375 Y-220.5
N1380 Z-16.65 F333.3
N1385 Y-189.5 F2500
N1390 Z-16
N1395 Y-180.5
N1400 Z-16.65 F333.3
N1405 Y-149.5 F2500
N1410 Z-16
N1415 Y-140.5
N1420 Z-16.65 F333.3
N1425 Y-109.5 F2500
N1430 Z-16
N1435 Y-100.5
N1440 Z-16.65 F333.3
N1445 Y-69.5 F2500
N1450 Z-16
N1455 Y-60.5
N1460 Z-16.65 F333.3
N1465 Y-45 F2500
N1470 G2 X302.276 Y-28.641 I28
N1475 G1 Z-16
N1480 G2 X308.64 Y-22.277 I22.724 J-16.359
N1485 G1 Z-16.65 F333.3
N1490 G2 X325 Y-17 I16.36 J-22.723 F2500
N1495 G1 X339.818
N1500 Z-16
N1505 X348.818
N1510 Z-16.65 F333.3
N1515 X378.455 F2500
N1520 Z-16
N1525 X387.455
N1530 Z-16.65 F333.3
N1535 X417.091 F2500
N1540 Z-16
N1545 X426.091
N1550 Z-16.65 F333.3
N1555 X455.727 F2500
N1560 Z-16
N1565 X464.727
N1570 Z-16.65 F333.3
N1575 X494.364 F2500
N1580 Z-16
N1585 X503.364
N1590 Z-16.65 F333.3
N1595 X533 F2500
N1600 Z-16
N1605 X542
N1610 Z-16.65 F333.3
N1615 X571.636 F2500
N1620 Z-16
N1625 X580.636
N1630 Z-16.65 F333.3
N1635 X610.273 F2500
N1640 Z-16
N1645 X619.273
N1650 Z-16.65 F333.3
N1655 X648.909 F2500
N1660 Z-16
N1665 X657.909
N1670 Z-16.65 F333.3
N1675 X687.545 F2500
N1680 Z-16
N1685 X696.545
N1690 Z-16.65 F333.3
N1695 X726.182 F2500
N1700 Z-16
N1705 X735.182
N1710 Z-16.65 F333.3
N1715 X764.818 F2500
N1720 Z-16
N1725 X773.818
N1730 Z-16.65 F333.3
N1735 X803.455 F2500
N1740 Z-16
N1745 X812.455
N1750 Z-16.65 F333.3
N1755 X842.091 F2500
N1760 Z-16
N1765 X851.091
N1770 Z-16.65 F333.3
N1775 X880.727 F2500
N1780 Z-16
N1785 X889.727
N1790 Z-16.65 F333.3
N1795 X919.364 F2500
N1800 Z-16
N1805 X928.364
N1810 Z-16.65 F333.3
N1815 X958 F2500
N1820 Z-16
N1825 X967
N1830 Z-16.65 F333.3
N1835 X996.64 F2500
N1840 Z-16
N1845 X1005.64
N1850 Z-16.65 F333.3
N1855 X1035.27 F2500
N1860 Z-16
N1865 X1044.27
N1870 Z-16.65 F333.3
N1875 X1073.91 F2500
N1880 Z-16
N1885 X1082.91
N1890 Z-16.65 F333.3
N1895 X1112.55 F2500
N1900 Z-16
N1905 X1121.55
N1910 Z-16.65 F333.3
N1915 X1151.18 F2500
N1920 Z-16
N1925 X1160.18
N1930 Z-16.65 F333.3
N1935 X1175 F2500
N1940 G2 X1191.361 Y-22.277 J-28
N1945 G1 Z-16
N1950 G2 X1197.725 Y-28.642 I-16.361 J-22.723
N1955 G1 Z-16.65 F333.3
N1960 G2 X1203 Y-45 I-22.725 J-16.358 F2500
N1965 G1 Y-60.5
N1970 Z-16
N1975 Y-69.5
N1980 Z-16.65 F333.3
N1985 Y-100.5 F2500
N1990 Z-16
N1995 Y-109.5
N2000 Z-16.65 F333.3
N2005 Y-140.5 F2500
N2010 Z-16
N2015 Y-149.5
N2020 Z-16.65 F333.3
N2025 Y-180.5 F2500
N2030 Z-16
N2035 Y-189.5
N2040 Z-16.65 F333.3
N2045 Y-220.5 F2500
N2050 Z-16
N2055 Y-229.5
N2060 Z-16.65 F333.3
N2065 Y-260.5 F2500
N2070 Z-16
N2075 Y-269.5
N2080 Z-16.65 F333.3
N2085 Y-275.841 F2500
N2090 Y-300.5 Z-16.819 F333.3
N2095 Z-16
N2100 Y-309.5
N2105 Z-16.881
N2110 Y-340.5 Z-17.093
N2115 Z-16
N2120 Y-349.5
N2125 Z-17.155
N2130 Y-380.5 Z-17.368
N2135 Z-16
N2140 Y-389.5
N2145 Z-17.43
N2150 Y-420.5 Z-17.642
N2155 Z-16
N2160 Y-429.5
N2165 Z-17.704
N2170 Y-460.5 Z-17.917
N2175 Z-16
N2180 Y-469.5
N2185 Z-17.978
N2190 Y-500.5 Z-18.191
N2195 Z-16
N2200 Y-509.5
N2205 Z-18.253
N2210 Y-540.5 Z-18.465
N2215 Z-16
N2220 Y-545.564
N2225 Y-549.5 F2500
N2230 Z-18.5 F333.3
N2235 Y-565 F2500
N2240 G2 X1197.724 Y-581.358 I-28
N2245 G1 Z-16
N2250 G2 X1191.361 Y-587.723 I-22.724 J16.358
N2255 G1 Z-18.5 F333.3
N2260 G2 X1175 Y-593 I-16.361 J22.723 F2500
N2265 G1 X1160.18
N2270 Z-16
N2275 X1151.18
N2280 Z-18.5 F333.3
N2285 X1121.55 F2500
N2290 Z-16
N2295 X1112.55
N2300 Z-18.5 F333.3
N2305 X1082.91 F2500
N2310 Z-16
N2315 X1073.91
N2320 Z-18.5 F333.3
N2325 X1044.27 F2500
N2330 Z-16
N2335 X1035.27
N2340 Z-18.5 F333.3
N2345 X1005.64 F2500
N2350 Z-16
N2355 X996.64
N2360 Z-18.5 F333.3
N2365 X967 F2500
N2370 Z-16
N2375 X958
N2380 Z-18.5 F333.3
N2385 X928.364 F2500
N2390 Z-16
N2395 X919.364
N2400 Z-18.5 F333.3
N2405 X889.727 F2500
N2410 Z-16
N2415 X880.727
N2420 Z-18.5 F333.3
N2425 X851.091 F2500
N2430 Z-16
N2435 X842.091
N2440 Z-18.5 F333.3
N2445 X812.455 F2500
N2450 Z-16
N2455 X803.455
N2460 Z-18.5 F333.3
N2465 X773.818 F2500
N2470 Z-16
N2475 X764.818
N2480 Z-18.5 F333.3
N2485 X735.182 F2500
N2490 Z-16
N2495 X726.182
N2500 Z-18.5 F333.3
N2505 X696.545 F2500
N2510 Z-16
N2515 X687.545
N2520 Z-18.5 F333.3
N2525 X657.909 F2500
N2530 Z-16
N2535 X648.909
N2540 Z-18.5 F333.3
N2545 X619.273 F2500
N2550 Z-16
N2555 X610.273
N2560 Z-18.5 F333.3
N2565 X580.636 F2500
N2570 Z-16
N2575 X571.636
N2580 Z-18.5 F333.3
N2585 X542 F2500
N2590 Z-16
N2595 X533
N2600 Z-18.5 F333.3
N2605 X503.364 F2500
N2610 Z-16
N2615 X494.364
N2620 Z-18.5 F333.3
N2625 X464.727 F2500
N2630 Z-16
N2635 X455.727
N2640 Z-18.5 F333.3
N2645 X426.091 F2500
N2650 Z-16
N2655 X417.091
N2660 Z-18.5 F333.3
N2665 X387.455 F2500
N2670 Z-16
N2675 X378.455
N2680 Z-18.5 F333.3
N2685 X348.818 F2500
N2690 Z-16
N2695 X339.818
N2700 Z-18.5 F333.3
N2705 X325 F2500
N2710 G2 X308.64 Y-587.724 J28
N2715 G1 Z-16
N2720 G2 X302.276 Y-581.36 I16.36 J22.724
N2725 G1 Z-18.5 F333.3
N2730 G2 X297 Y-565 I22.724 J16.36 F2500
N2735 G1 Y-549.5
N2740 Z-16
N2745 Y-540.5
N2750 Z-18.5 F333.3
N2755 Y-509.5 F2500
N2760 Z-16
N2765 Y-500.5
N2770 Z-18.5 F333.3
N2775 Y-469.5 F2500
N2780 Z-16
N2785 Y-460.5
N2790 Z-18.5 F333.3
N2795 Y-429.5 F2500
N2800 Z-16
N2805 Y-420.5
N2810 Z-18.5 F333.3
N2815 Y-389.5 F2500
N2820 Z-16
N2825 Y-380.5
N2830 Z-18.5 F333.3
N2835 Y-349.5 F2500
N2840 Z-16
N2845 Y-340.5
N2850 Z-18.5 F333.3
N2855 Y-309.5 F2500
N2860 Z-16
N2865 Y-300.5
N2870 Z-18.5 F333.3
N2875 Y-269.5 F2500
N2880 Z-16
N2885 Y-260.5
N2890 Z-18.5 F333.3
N2895 Y-229.5 F2500
N2900 Z-16
N2905 Y-220.5
N2910 Z-18.5 F333.3
N2915 Y-189.5 F2500
N2920 Z-16
N2925 Y-180.5
N2930 Z-18.5 F333.3
N2935 Y-149.5 F2500
N2940 Z-16
N2945 Y-140.5
N2950 Z-18.5 F333.3
N2955 Y-109.5 F2500
N2960 Z-16
N2965 Y-100.5
N2970 Z-18.5 F333.3
N2975 Y-69.5 F2500
N2980 Z-16
N2985 Y-60.5
N2990 Z-18.5 F333.3
N2995 Y-45 F2500
N3000 G2 X302.276 Y-28.641 I28
N3005 G1 Z-16
N3010 G2 X308.64 Y-22.277 I22.724 J-16.359
N3015 G1 Z-18.5 F333.3
N3020 G2 X325 Y-17 I16.36 J-22.723 F2500
N3025 G1 X339.818
N3030 Z-16
N3035 X348.818
N3040 Z-18.5 F333.3
N3045 X378.455 F2500
N3050 Z-16
N3055 X387.455
N3060 Z-18.5 F333.3
N3065 X417.091 F2500
N3070 Z-16
N3075 X426.091
N3080 Z-18.5 F333.3
N3085 X455.727 F2500
N3090 Z-16
N3095 X464.727
N3100 Z-18.5 F333.3
N3105 X494.364 F2500
N3110 Z-16
N3115 X503.364
N3120 Z-18.5 F333.3
N3125 X533 F2500
N3130 Z-16
N3135 X542
N3140 Z-18.5 F333.3
N3145 X571.636 F2500
N3150 Z-16
N3155 X580.636
N3160 Z-18.5 F333.3
N3165 X610.273 F2500
N3170 Z-16
N3175 X619.273
N3180 Z-18.5 F333.3
N3185 X648.909 F2500
N3190 Z-16
N3195 X657.909
N3200 Z-18.5 F333.3
N3205 X687.545 F2500
N3210 Z-16
N3215 X696.545
N3220 Z-18.5 F333.3
N3225 X726.182 F2500
N3230 Z-16
N3235 X735.182
N3240 Z-18.5 F333.3
N3245 X764.818 F2500
N3250 Z-16
N3255 X773.818
N3260 Z-18.5 F333.3
N3265 X803.455 F2500
N3270 Z-16
N3275 X812.455
N3280 Z-18.5 F333.3
N3285 X842.091 F2500
N3290 Z-16
N3295 X851.091
N3300 Z-18.5 F333.3
N3305 X880.727 F2500
N3310 Z-16
N3315 X889.727
N3320 Z-18.5 F333.3
N3325 X919.364 F2500
N3330 Z-16
N3335 X928.364
N3340 Z-18.5 F333.3
N3345 X958 F2500
N3350 Z-16
N3355 X967
N3360 Z-18.5 F333.3
N3365 X996.64 F2500
N3370 Z-16
N3375 X1005.64
N3380 Z-18.5 F333.3
N3385 X1035.27 F2500
N3390 Z-16
N3395 X1044.27
N3400 Z-18.5 F333.3
N3405 X1073.91 F2500
N3410 Z-16
N3415 X1082.91
N3420 Z-18.5 F333.3
N3425 X1112.55 F2500
N3430 Z-16
N3435 X1121.55
N3440 Z-18.5 F333.3
N3445 X1151.18 F2500
N3450 Z-16
N3455 X1160.18
N3460 Z-18.5 F333.3
N3465 X1175 F2500
N3470 G2 X1191.361 Y-22.277 J-28
N3475 G1 Z-16
N3480 G2 X1197.725 Y-28.642 I-16.361 J-22.723
N3485 G1 Z-18.5 F333.3
N3490 G2 X1203 Y-45 I-22.725 J-16.358 F2500
N3495 G1 Y-60.5
N3500 Z-16
N3505 Y-69.5
N3510 Z-18.5 F333.3
N3515 Y-100.5 F2500
N3520 Z-16
N3525 Y-109.5
N3530 Z-18.5 F333.3
N3535 Y-140.5 F2500
N3540 Z-16
N3545 Y-149.5
N3550 Z-18.5 F333.3
N3555 Y-180.5 F2500
N3560 Z-16
N3565 Y-189.5
N3570 Z-18.5 F333.3
N3575 Y-220.5 F2500
N3580 Z-16
N3585 Y-229.5
N3590 Z-18.5 F333.3
N3595 Y-260.5 F2500
N3600 Z-16
N3605 Y-269.5
N3610 Z-18.5 F333.3
N3615 Y-300.5 F2500
N3620 Z-16
N3625 Y-309.5
N3630 Z-18.5 F333.3
N3635 Y-340.5 F2500
N3640 Z-16
N3645 Y-349.5
N3650 Z-18.5 F333.3
N3655 Y-380.5 F2500
N3660 Z-16
N3665 Y-389.5
N3670 Z-18.5 F333.3
N3675 Y-420.5 F2500
N3680 Z-16
N3685 Y-429.5
N3690 Z-18.5 F333.3
N3695 Y-460.5 F2500
N3700 Z-16
N3705 Y-469.5
N3710 Z-18.5 F333.3
N3715 Y-500.5 F2500
N3720 Z-16
N3725 Y-509.5
N3730 Z-18.5 F333.3
N3735 Y-540.5 F2500
N3740 Z-16
N3745 Y-545.564
N3750 Z15
N3755 M9
N3760 G28
N3765 M30
%
